!!!!SEGMENT: pl-kk--kk-i-351_ruggiero--isti-sunt-triumphatores.krn
!!!cenid: 17xx:2164
!!!COM: Ruggiero
!!!COM-rismid: pe41017562
!!!CDT:
!!!CNT:
!!!OTL: Isti sunt triumphatores
!!!PDT:
!!!AGN: Sacred
!!!SMS-siglum: PL-Kk
!!!SMS-shelfmark: Kk.I.351
!!!SMS-shelfwork: W
!!!SMS-variant:
!!!SMS-altvar:
!!!NIFC-rismid: 1001145909
!!!URL-scan: http://repozytorium.nifc.pl/skany/pl-kk-nut--i-351
!!!ONB-nifc:
**kern	**text	**kern	**text	**kern	**text	**kern	**text	**kern	**text	**kern	**text
*part6	*part6	*part5	*part5	*part4	*part4	*part3	*part3	*part2	*part2	*part1	*part1
*staff6	*staff6	*staff5	*staff5	*staff4	*staff4	*staff3	*staff3	*staff2	*staff2	*staff1	*staff1
*I"Baſso Ripieno.	*	*I"Baſso.	*	*I"Tenore II	*	*I"Tenore I.	*	*I"Alto.	*	*I"Canto	*
*I'B rip	*	*I'B	*	*I'T 2	*	*I'T 1	*	*I'A	*	*I'S	*
*clefC4	*	*clefC4	*	*clefC3	*	*clefC3	*	*clefC2	*	*clefG2	*
*k[]	*	*k[]	*	*k[]	*	*k[]	*	*k[]	*	*k[]	*
*M2/1	*	*M2/1	*	*M2/1	*	*M2/1	*	*M2/1	*	*M2/1	*
*met(C|)	*	*met(C|)	*	*met(C|)	*	*met(C|)	*	*met(C|)	*	*met(C|)	*
=1-	=1-	=1-	=1-	=1-	=1-	=1-	=1-	=1-	=1-	=1-	=1-
00r	.	00r	.	00r	.	00r	.	0r	.	1.dd\	I-
*	*	*	*	*	*	*	*	*	*	*2\right	*
.	.	.	.	.	.	.	.	.	.	2dd\	-sti
=2-	=2-	=2-	=2-	=2-	=2-	=2-	=2-	=2-	=2-	=2-	=2-
!	!	!	!	!	!	!	!	!LO:TX:t=P:problem:kreska pseudotaktowa	!	!LO:TX:t=P:problem:kreska pseudotaktowa	!
.	.	.	.	.	.	.	.	1r	.	1g/	sunt
.	.	.	.	.	.	.	.	1.g\	I-	2r	.
.	.	.	.	.	.	.	.	.	.	2dd\	Tri-
=3-	=3-	=3-	=3-	=3-	=3-	=3-	=3-	=3-	=3-	=3-	=3-
00r	.	00r	.	00r	.	00r	.	.	.	2dd\	-ump-
*	*	*	*	*	*	*	*	*2\right	*	*	*
!	!	!	!	!	!	!	!	!LO:TX:t=P:problem:kreska pseudotaktowa	!	!	!
!	!	!	!	!	!	!	!	!	!	!LO:TX:t=P:problem:kreska pseudotaktowa	!
.	.	.	.	.	.	.	.	2g\	-sti	2b/	-ha-
.	.	.	.	.	.	.	.	2c/	sunt	(4cc\	-to-
.	.	.	.	.	.	.	.	.	.	4dd\	.
!	!	!	!	!	!	!	!	!LO:TX:t=P:problem:kreska pseudotaktowa	!	!	!
.	.	.	.	.	.	.	.	2cc\	Tri-	4ee\	.
.	.	.	.	.	.	.	.	.	.	4ff\)	.
=4-	=4-	=4-	=4-	=4-	=4-	=4-	=4-	=4-	=4-	=4-	=4-
.	.	.	.	.	.	.	.	2cc\	-ump-	4gg\	.
.	.	.	.	.	.	.	.	.	.	4ff\	.
!	!	!	!	!	!	!	!	!LO:TX:t=P:problem:kreska pseudotaktowa	!	!	!
.	.	.	.	.	.	.	.	2g\	-ha-	4ee\	.
!	!	!	!	!	!	!	!	!	!	!LO:TX:t=P:problem:kreska pseudotaktowa	!
.	.	.	.	.	.	.	.	.	.	4dd\	.
.	.	.	.	.	.	.	.	4a\	-to-	4cc/	.
.	.	.	.	.	.	.	.	4g\	.	4b/	.
.	.	.	.	.	.	.	.	4f\	.	4a/	.
!	!	!	!	!	!	!	!	!LO:TX:t=P:problem:kreska pseudotaktowa	!	!LO:TX:t=P:problem:kreska pseudotaktowa	!
.	.	.	.	.	.	.	.	4e\	.	4g/	.
=5-	=5-	=5-	=5-	=5-	=5-	=5-	=5-	=5-	=5-	=5-	=5-
!	!	!	!	!	!	!LO:TX:t=P:problem:kreska pseudotaktowa	!	!	!	!	!
00r	.	00r	.	0r	.	0r	.	4f\	.	4a/	.
.	.	.	.	.	.	.	.	4e\	.	4b/	.
!	!	!	!	!	!	!	!	!	!	!LO:TX:t=P:problem:kreska pseudotaktowa:między nutą a kropką:łuk	!
.	.	.	.	.	.	.	.	4d/	.	2.cc\	.
!	!	!	!	!	!	!	!	!LO:TX:t=P:problem:kreska pseudotaktowa	!	!	!
.	.	.	.	.	.	.	.	4c/	.	.	.
.	.	.	.	.	.	.	.	1d/	.	.	.
.	.	.	.	.	.	.	.	.	.	8b/L	.
.	.	.	.	.	.	.	.	.	.	8a/J	.
!	!	!	!	!	!	!	!	!	!	!LO:TX:t=P:problem:kreska pseudotaktowa	!
.	.	.	.	.	.	.	.	.	.	2b/	.
=6-	=6-	=6-	=6-	=6-	=6-	=6-	=6-	=6-	=6-	=6-	=6-
!	!	!	!	!LO:TX:t=P:problem:kreska pseudotaktowa	!	!	!	!	!	!	!
.	.	.	.	1r	.	1.c\	Is-	2e,\	-res	2cc,\	-res:
!	!	!	!	!	!	!	!	!LO:TX:t=P:problem:kreska pseudotaktowa	!	!	!
.	.	.	.	.	.	.	.	2g\	Tri-	1ee\	Is-
.	.	.	.	1.g\	Is-	.	.	2cc\	-ump-	.	.
!	!	!	!	!	!	!	!	!	!	!LO:TX:t=P:problem:kreska pseudotaktowa	!
!	!	!	!	!	!	!	!	!LO:TX:t=P:problem:kreska pseudotaktowa	!	!LO:SIC:v:t=custos “dd”	!
.	.	.	.	.	.	2c/	-ti	2cc\	-ha-	2ee\	-ti
!	!	!	!	!	!	!	!	!LO:LB:g=original	!	!LO:LB:g=original	!
=7-	=7-	=7-	=7-	=7-	=7-	=7-	=7-	=7-	=7-	=7-	=7-
!	!	!	!	!	!	!LO:TX:t=P:problem:kreska pseudotaktowa	!	!	!	!	!
00r	.	00r	.	.	.	1G/	sunt	4.bn\	-to-	1dd\,	sunt
.	.	.	.	.	.	.	.	8a\	.	.	.
*	*	*	*	*2\right	*	*	*	*	*	*	*
!	!	!	!	!	!	!	!	!LO:TX:t=P:problem:kreska pseudotaktowa	!	!	!
.	.	.	.	2g\	-ti	.	.	2b\	.	.	.
!	!	!	!	!LO:TX:t=P:problem:kreska pseudotaktowa	!	!	!	!	!	!LO:TX:t=P:problem:kreska pseudotaktowa	!
.	.	.	.	1c\,	sunt	2r	.	2cc,\	-res,	1ee\	Tri-
*	*	*	*	*	*	*2\right	*	*	*	*	*
!	!	!	!	!	!	!	!	!LO:TX:t=P:problem:kreska pseudotaktowa	!	!	!
.	.	.	.	.	.	2g\	Tri-	2cc\	Tri-	.	.
=8-	=8-	=8-	=8-	=8-	=8-	=8-	=8-	=8-	=8-	=8-	=8-
.	.	.	.	2r	.	2g\	-ump-	2b\	-ump-	2dd\	-ump-
!	!	!	!	!	!	!LO:TX:t=P:problem:kreska pseudotaktowa	!	!	!	!	!
.	.	.	.	2c/	Tri-	2e\	-ha-	1g\	-ha-	2ee\	-ha-
.	.	.	.	2c/	-ump-	(4e\	-to-	.	.	1cc\	-to-
.	.	.	.	.	.	4d\	.	.	.	.	.
!	!	!	!	!LO:TX:t=P:problem:kreska pseudotaktowa	!	!	!	!LO:TX:t=P:problem:kreska pseudotaktowa:między nutą a kropką:łuk	!	!	!
.	.	.	.	2A/	-ha-	4c/	.	2.a\	-to-	.	.
.	.	.	.	.	.	4B/)	.	.	.	.	.
=9-	=9-	=9-	=9-	=9-	=9-	=9-	=9-	=9-	=9-	=9-	=9-
!LO:TX:t=P:problem:kreska pseudotaktowa	!	!LO:TX:t=P:problem:kreska pseudotaktowa	!	!	!	!	!	!	!	!LO:TX:t=P:problem:kreska pseudotaktowa	!
0r	.	0r	.	4c/	-to-	2.A/	.	.	.	0cc\	-res
.	.	.	.	4B/	.	.	.	4g\	.	.	.
.	.	.	.	4A/	.	.	.	4f\	.	.	.
!	!	!	!	!LO:TX:t=P:problem:kreska pseudotaktowa	!	!LO:TX:t=P:problem:kreska pseudotaktowa	!	!LO:TX:t=P:problem:kreska pseudotaktowa	!	!	!
.	.	.	.	4G/	.	4B/	.	4e\	.	.	.
.	.	.	.	4A/	.	1c\	.	2f\	.	.	.
.	.	.	.	4B/	.	.	.	.	.	.	.
.	.	.	.	4c/	.	.	.	4e\	.	.	.
.	.	.	.	4A/	.	.	.	4f\	.	.	.
=10-	=10-	=10-	=10-	=10-	=10-	=10-	=10-	=10-	=10-	=10-	=10-
!	!	!	!	!	!	!	!	!LO:TX:t=P:problem:kreska pseudotaktowa	!	!	!
1.G/	Is-	1.G/	Is-	2B/	.	(2d\	.	1g\	.	2r	.
!	!	!	!	!LO:TX:t=P:problem:kreska pseudotaktowa:między nutą a kropką:łuk	!	!	!	!	!	!	!
.	.	.	.	2.c/	.	2e\)	.	.	.	2gg\	Tri-
.	.	.	.	.	.	2d\	.	2g,\	-res	2gg\	-ump-
.	.	.	.	8B/L	.	.	.	.	.	.	.
.	.	.	.	8A/J	.	.	.	.	.	.	.
!LO:TX:t=P:problem:kreska pseudotaktowa	!	!	!	!LO:TX:t=P:problem:kreska pseudotaktowa	!	!LO:TX:t=P:problem:kreska pseudotaktowa	!	!	!	!LO:TX:t=P:problem:kreska pseudotaktowa	!
2G/	-ti	2G/	-ti	2B/	.	2d,\	-res	1g\	Is-	2dd\	-ha-
=11-	=11-	=11-	=11-	=11-	=11-	=11-	=11-	=11-	=11-	=11-	=11-
!	!	!	!	!LO:TX:t=P:problem:kreska pseudotaktowa	!	!	!	!	!	!	!
2C,/	sunt	2C,/	sunt	1c\,	-res	2r	.	.	.	4ee\	-to-
.	.	.	.	.	.	.	.	.	.	4ff\	.
*2\right	*	*2\right	*	*	*	*	*	*	*	*	*
!LO:TX:t=P:problem:kreska pseudotaktowa	!	!	!	!	!	!	!	!LO:TX:t=P:problem:kreska pseudotaktowa	!	!	!
2c\	Tri-	2c\	Tri-	.	.	1g\	Is-	2g\	-ti	4gg\	.
.	.	.	.	.	.	.	.	.	.	4ff\	.
!	!	!	!	!	!	!	!	!LO:TX:t=P:problem:kreska pseudotaktowa	!	!	!
2c\	-ump-	2c\	-ump-	2r	.	.	.	1G/	sunt!	2ee\	.
!LO:TX:t=P:problem:kreska pseudotaktowa	!	!LO:TX:t=P:problem:kreska pseudotaktowa	!	!	!	!	!	!	!	!	!
2B\	-ha-	2B\	-ha-	1g\	Is-	2g\	-ti	.	.	2dd\	.
=12-	=12-	=12-	=12-	=12-	=12-	=12-	=12-	=12-	=12-	=12-	=12-
!	!	!	!	!	!	!	!	!	!	!LO:TX:t=P:problem:kreska pseudotaktowa	!
(4e\	-to-	4e\	-to-	.	.	2c,/	sunt	2r	.	1cc\	-res.
4d\	.	4d\	.	.	.	.	.	.	.	.	.
!	!	!	!	!	!	!LO:TX:t=P:problem:kreska pseudotaktowa	!	!	!	!	!
!	!	!	!	!	!	!LO:SIC:v:t=custos “e”	!	!	!	!	!
4c\	.	4c\	.	2g\	-ti	2e\	Tri-	1cc\	Is-	.	.
4B\)	.	4B\	.	.	.	.	.	.	.	.	.
!	!	!	!	!	!	!LO:LB:g=original	!	!	!	!	!
!	!	!	!	!LO:TX:t=P:problem:kreska pseudotaktowa	!	!	!	!	!	!	!
(4A/	.	4A\	.	1c\	sunt	(2e\	-ump-	.	.	1r	.
4G/	.	4G/	.	.	.	.	.	.	.	.	.
!	!	!	!	!	!	!	!	!LO:TX:t=P:problem:kreska pseudotaktowa	!	!	!
4F/	.	4F/	.	.	.	4f\	.	2cc\	-ti	.	.
!LO:TX:t=P:problem:kreska pseudotaktowa	!	!	!	!	!	!LO:TX:t=P:problem:kreska pseudotaktowa	!	!	!	!	!
4E/)	.	4E/	.	.	.	4g\)	.	.	.	.	.
!	!	!	!	!	!	!	!	!LO:LB:g=original	!	!	!
=13-	=13-	=13-	=13-	=13-	=13-	=13-	=13-	=13-	=13-	=13-	=13-
0D/	.	0D/	.	2r	.	(4a\	-ha-	2f,\	sunt	1.dd\	Is-
.	.	.	.	.	.	4g\	.	.	.	.	.
!	!	!	!	!LO:TX:t=P:problem:kreska pseudotaktowa	!	!	!	!LO:TX:t=P:problem:kreska pseudotaktowa	!	!	!
.	.	.	.	2d\	Tri-	4f\	.	2a\	Tri-	.	.
.	.	.	.	.	.	4e\)	.	.	.	.	.
!	!	!	!	!LO:LB:g=original	!	!	!	!	!	!	!
.	.	.	.	2f\	-ump-	4d\	-to-	2a\	-ump-	.	.
.	.	.	.	.	.	4e\	.	.	.	.	.
!	!	!	!	!LO:TX:t=P:problem:kreska pseudotaktowa	!	!LO:TX:t=P:problem:kreska pseudotaktowa	!	!LO:TX:t=P:problem:kreska pseudotaktowa	!	!LO:TX:t=P:problem:kreska pseudotaktowa	!
.	.	.	.	2d\	-ha-	2f\	.	2b\	-ha-	2dd\	-ti
=14-	=14-	=14-	=14-	=14-	=14-	=14-	=14-	=14-	=14-	=14-	=14-
!LO:TX:t=P:problem:kreska pseudotaktowa	!	!LO:TX:t=P:problem:kreska pseudotaktowa	!	!	!	!	!	!	!	!	!
1C/,	-res	1C/,	-res	4e\	-to-	4g\	.	1cc\	-to-	2g,/	sunt
.	.	.	.	4f\	.	4f\	.	.	.	.	.
.	.	.	.	4g\	.	4e\	.	.	.	2gg\	Tri-
.	.	.	.	4f\	.	4d\	.	.	.	.	.
0r	.	0r	.	4e\	.	2.c/	.	2cc,\	-res	2gg\	-ump-
.	.	.	.	4d\	.	.	.	.	.	.	.
!	!	!	!	!	!	!	!	!LO:TX:t=P:problem:kreska pseudotaktowa	!	!LO:TX:t=P:problem:kreska pseudotaktowa	!
.	.	.	.	4c\	.	.	.	2cc\	Tri-	2ee\	-ha-
!	!	!	!	!LO:TX:t=P:problem:kreska pseudotaktowa	!	!LO:TX:t=P:problem:kreska pseudotaktowa	!	!	!	!	!
.	.	.	.	4B\	.	4d/	.	.	.	.	.
=15-	=15-	=15-	=15-	=15-	=15-	=15-	=15-	=15-	=15-	=15-	=15-
!LO:TX:t=P:problem:kreska pseudotaktowa	!	!LO:TX:t=P:problem:kreska pseudotaktowa	!	!	!	!	!	!	!	!	!
.	.	.	.	1A/	.	2.e\	.	2cc\	-ump-	4ee\	-to-
.	.	.	.	.	.	.	.	.	.	4dd\	.
!	!	!	!	!	!	!	!	!LO:TX:t=P:problem:kreska pseudotaktowa	!	!	!
.	.	.	.	.	.	.	.	2a\	-ha-	4cc\	.
!	!	!	!	!	!	!LO:TX:t=P:problem:kreska pseudotaktowa	!	!	!	!LO:TX:t=P:problem:kreska pseudotaktowa	!
.	.	.	.	.	.	4f\	.	.	.	4dd\	.
!	!	!	!	!	!	!	!	!	!	!LO:LB:g=original	!
1r	.	1r	.	0G/	-res,	2g\	.	2b\	-to-	2ee\	.
.	.	.	.	.	.	4f\	.	2.cc\	.	4dd\	.
.	.	.	.	.	.	4e\	.	.	.	4cc\	.
=16-	=16-	=16-	=16-	=16-	=16-	=16-	=16-	=16-	=16-	=16-	=16-
!	!	!	!	!LO:TX:t=P:problem:kreska pseudotaktowa	!	!	!	!	!	!	!
2r	.	2r	.	.	.	4d\	.	.	.	1dd\	.
.	.	.	.	.	.	8e\L	.	8b\L	.	.	.
.	.	.	.	.	.	8f\J	.	8a\J	.	.	.
!LO:TX:t=P:problem:kreska pseudotaktowa	!	!	!	!	!	!	!	!LO:TX:t=P:problem:kreska pseudotaktowa	!	!	!
2G/	et	2G/	et	.	.	2g\	.	2b\	.	.	.
!	!	!	!	!	!	!LO:TX:t=P:problem:kreska pseudotaktowa	!	!LO:TX:t=P:problem:kreska pseudotaktowa	!	!LO:TX:t=P:problem:kreska pseudotaktowa	!
2A\	a-	2A\	a-	2r	.	1e\,	-res.	1cc\,	-res.	1cc\	-res
1c\	-mi-	1c\	-mi-	2c\	et	.	.	.	.	.	.
=17-	=17-	=17-	=17-	=17-	=17-	=17-	=17-	=17-	=17-	=17-	=17-
.	.	.	.	2e\	a-	0r	.	1g\,	et	1r	.
!LO:TX:t=P:problem:kreska pseudotaktowa	!	!LO:TX:t=P:problem:kreska pseudotaktowa	!	!	!	!	!	!	!	!	!
2B,\	-ci	2B\	-ci	1g\	-mi-	.	.	.	.	.	.
1A\	De-	1A\	De-	.	.	.	.	2a\	a-	1cc\	et
!	!	!	!	!LO:TX:t=P:problem:kreska pseudotaktowa	!	!	!	!	!	!	!
.	.	.	.	2f\	-ci	.	.	1cc\	-mi-	.	.
=18-	=18-	=18-	=18-	=18-	=18-	=18-	=18-	=18-	=18-	=18-	=18-
!	!	!LO:TX:t=P:problem:kreska pseudotaktowa	!	!	!	!LO:TX:t=P:problem:kreska pseudotaktowa	!	!	!	!	!
1G/,	-i	1G/,	-i	2e\	De-	1r	.	.	.	2ee\	a-
!	!	!	!	!LO:TX:t=P:problem:kreska pseudotaktowa	!	!	!	!LO:TX:t=P:problem:kreska pseudotaktowa	!	!	!
.	.	.	.	2d,\	-i,	.	.	2b\	-ci	1gg\	-mi-
!LO:LB:g=original	!	!	!	!	!	!	!	!	!	!	!
0r	.	0r	.	0r	.	1d\	et	1a\	De-	.	.
!	!	!	!	!	!	!	!	!	!	!LO:TX:t=P:problem:kreska pseudotaktowa	!
.	.	.	.	.	.	.	.	.	.	2ff\	-ci
=19-	=19-	=19-	=19-	=19-	=19-	=19-	=19-	=19-	=19-	=19-	=19-
!	!	!LO:TX:t=P:problem:kreska pseudotaktowa	!	!	!	!	!	!	!	!	!
!LO:TX:t=P:problem:kreska pseudotaktowa	!	!LO:SIC:v:t=custos “C”	!	!	!	!	!	!	!	!	!
.	.	.	.	.	.	2e\	a-	2.g\	.	1ee\	De-
.	.	.	.	.	.	1g\	-mi-	.	.	.	.
!	!	!	!	!	!	!	!	!LO:TX:t=P:problem:kreska pseudotaktowa	!	!	!
!	!	!	!	!	!	!	!	!LO:SIC:v:t=custos b- w formie wyłącznie bemola	!	!	!
.	.	.	.	.	.	.	.	4a\	.	.	.
!	!	!	!	!	!	!	!	!LO:LB:g=original	!	!	!
*	*	*	*	*	*ij	*	*	*	*	*	*
1r	.	1r	.	1d\	et	.	.	2b-X\	.	1dd\	.
!	!	!	!	!	!	!LO:TX:t=P:problem:kreska pseudotaktowa	!	!	!	!	!
.	.	.	.	.	.	2f\	-ci	2a\	.	.	.
!	!	!LO:LB:g=original	!	!	!	!	!	!	!	!	!
=20-	=20-	=20-	=20-	=20-	=20-	=20-	=20-	=20-	=20-	=20-	=20-
!	!	!	!	!	!	!	!	!LO:TX:t=P:problem:kreska pseudotaktowa	!	!	!
1C/	et	1C/,	et	2e\	a-	1e\	De-	1g\,	-i	1cc\,	-i
.	.	.	.	1g\	-mi-	.	.	.	.	.	.
!LO:TX:t=P:problem:kreska pseudotaktowa	!	!	!	!	!	!LO:TX:t=P:problem:kreska pseudotaktowa	!	!	!	!LO:TX:t=P:problem:kreska pseudotaktowa	!
1D/	a-	1D/	a-	.	.	1d\	-i,	1r	.	1a/,	et
!	!	!	!	!LO:TX:t=P:problem:kreska pseudotaktowa	!	!	!	!	!	!	!
.	.	.	.	2f\	-ci	.	.	.	.	.	.
=21-	=21-	=21-	=21-	=21-	=21-	=21-	=21-	=21-	=21-	=21-	=21-
1G/	-mi-	1G/	-mi-	2e\	De-	1r	.	2.g\	et	2b\	a-
!	!	!	!	!LO:TX:t=P:problem:kreska pseudotaktowa	!	!	!	!	!	!	!
.	.	.	.	2d\	-i,	.	.	.	.	1dd\	-mi-
*	*	*	*	*	*Xij	*	*	*	*	*	*
.	.	.	.	.	.	.	.	4g\	a-	.	.
!LO:TX:t=P:problem:kreska pseudotaktowa	!	!LO:TX:t=P:problem:kreska pseudotaktowa	!	!	!	!	!	!	!	!	!
1A\,	-ci	1A\	-ci	00r	.	2r	.	2f\	-mi-	.	.
!	!	!	!	!	!	!	!	!LO:TX:t=P:problem:kreska pseudotaktowa	!	!LO:TX:t=P:problem:kreska pseudotaktowa	!
.	.	.	.	.	.	1a\	et	2e\	-ci	2cc#X\	-ci
=22-	=22-	=22-	=22-	=22-	=22-	=22-	=22-	=22-	=22-	=22-	=22-
1B-X\	De-	1B-X\	De-	.	.	.	.	1d/	De-	(2.dd\	De-
!	!	!	!	!	!	!LO:TX:t=P:problem:kreska pseudotaktowa	!	!	!	!	!
.	.	.	.	.	.	2g\	a-	.	.	.	.
.	.	.	.	.	.	.	.	.	.	4ee\)	.
!	!	!	!	!	!	!LO:LB:g=original	!	!	!	!	!
2.A/	.	(2.A/	.	.	.	1.a\	-mi-	2c,/	-i	2ff\	.
.	.	.	.	.	.	.	.	(2.cc\	De-	2.ee\	.
!LO:TX:t=P:problem:kreska pseudotaktowa	!	!	!	!	!	!	!	!	!	!	!
4G/	.	4G/)	.	.	.	.	.	.	.	.	.
=23-	=23-	=23-	=23-	=23-	=23-	=23-	=23-	=23-	=23-	=23-	=23-
!	!	!	!	!LO:TX:t=P:problem:kreska pseudotaktowa	!	!	!	!	!	!	!
2.F/	.	2.F/	.	.	.	.	.	.	.	.	.
.	.	.	.	.	.	.	.	4b\	.	4dd\	.
.	.	.	.	.	.	2f\	-ci	2a\)	.	1dd\	.
4G/	.	4G/	.	.	.	.	.	.	.	.	.
!	!	!	!	!	!	!	!	!LO:TX:t=P:problem:kreska pseudotaktowa	!	!	!
1A\	.	1A\	.	1r	.	1e\	De-	1a\,	-i	.	.
.	.	.	.	.	.	.	.	.	.	2cc#X\	.
=24-	=24-	=24-	=24-	=24-	=24-	=24-	=24-	=24-	=24-	=24-	=24-
!LO:TX:t=P:problem:kreska pseudotaktowa	!	!LO:TX:t=P:problem:kreska pseudotaktowa	!	!	!	!LO:TX:t=P:problem:kreska pseudotaktowa	!	!	!	!LO:TX:t=P:problem:kreska pseudotaktowa	!
1D/,	-i.	1D/,	-i	2r	.	1d\,	-i.	2r	.	1dd\,	-i;
.	.	.	.	2f\	Qui	.	.	2a\	Qui	.	.
0r	.	0r	.	2d\	con-	2r	.	2f\	con-	2r	.
!	!	!	!	!LO:TX:t=P:problem:kreska pseudotaktowa	!	!	!	!	!	!	!
!	!	!	!	!LO:SIC:v:t=custos “f”	!	!	!	!	!	!LO:TX:t=P:problem:kreska pseudotaktowa	!
.	.	.	.	2e\	-te-	2c/	Qui	2g\	-tem-	2ee\	Qui
!	!	!	!	!LO:LB:g=original	!	!	!	!	!	!LO:LB:g=original	!
=25-	=25-	=25-	=25-	=25-	=25-	=25-	=25-	=25-	=25-	=25-	=25-
!	!	!	!	!	!	!	!	!LO:TX:t=P:problem:kreska pseudotaktowa	!	!	!
.	.	.	.	1f\	-mnen-	2A/	con-	1a\	-nen-	2cc\	con-
.	.	.	.	.	.	2B/	-tem-	.	.	2dd\	-tem-
!	!	!	!	!	!	!	!	!	!	!LO:TX:t=P:problem:kreska pseudotaktowa	!
2r	.	2r	.	2e,\	-tes	1c\	-nen-	2g,\	-tes	1ee\	-nen-
!LO:TX:t=P:problem:kreska pseudotaktowa	!	!LO:TX:t=P:problem:kreska pseudotaktowa	!	!	!	!	!	!	!	!	!
2A\	Qui	2A\	Qui	1a\	juſ-	.	.	1cc\	juſ-	.	.
=26-	=26-	=26-	=26-	=26-	=26-	=26-	=26-	=26-	=26-	=26-	=26-
!	!	!	!	!	!	!LO:TX:t=P:problem:kreska pseudotaktowa	!	!	!	!	!
2F/	con-	2F/	con-	.	.	1d\,	-tes	.	.	2dd,\	-tes
!	!	!	!	!	!	!	!	!LO:TX:t=P:problem:kreska pseudotaktowa	!	!	!
!	!	!	!	!LO:TX:t=P:problem:kreska pseudotaktowa	!	!	!	!LO:SIC:v:t=custos “a”	!	!	!
2G/	-tem-	2G/	-tem-	2g\	-sa	.	.	2b\	-sa	1dd\	juſ-
!	!	!	!	!	!	!	!	!LO:LB:g=original	!	!	!
!LO:TX:t=P:problem:kreska pseudotaktowa	!	!	!	!	!	!	!	!	!	!	!
1A\	-nen-	1A\	-nen-	2f\	Prin-	1r	.	(2.a\	Prin-	.	.
!	!	!	!	!	!	!	!	!	!	!LO:TX:t=P:problem:kreska pseudotaktowa	!
.	.	.	.	2e\	-ci-	.	.	.	.	2cc\	-sa
.	.	.	.	.	.	.	.	4g\	.	.	.
=27-	=27-	=27-	=27-	=27-	=27-	=27-	=27-	=27-	=27-	=27-	=27-
!	!	!	!	!LO:TX:t=P:problem:kreska pseudotaktowa	!	!	!	!	!	!	!
2D,/	-tes	2D,/	-tes	1d\	-pum,	2r	.	2f\)	.	2.b/	Prin-
!	!	!	!	!	!	!LO:TX:t=P:problem:kreska pseudotaktowa	!	!LO:TX:t=P:problem:kreska pseudotaktowa	!	!	!
*	*	*	*	*	*	*	*ij	*	*	*	*
1d\	juſ-	1d\	Juſ-	.	.	2f\	Qui	2d/	-ci-	.	.
.	.	.	.	.	.	.	.	.	.	4b/	-ci-
!	!	!	!	!	!	!	!	!	!	!LO:TX:t=P:problem:kreska pseudotaktowa	!
.	.	.	.	2r	.	2d\	con-	2A,/	-pum	1a/	-pu(m)
!	!	!LO:TX:t=P:problem:kreska pseudotaktowa	!	!	!	!	!	!	!	!	!
2c\	-sa	2c\	-sa	2a\	qui	2e\	-tem-	1a\	juſ-	.	.
=28-	=28-	=28-	=28-	=28-	=28-	=28-	=28-	=28-	=28-	=28-	=28-
2.B-X\	Prin-	2.B-X\	Prin-	2f\	con-	2f\	-nen-	.	.	2r	.
!	!	!	!	!	!	!LO:TX:t=P:problem:kreska pseudotaktowa	!	!LO:TX:t=P:problem:kreska pseudotaktowa	!	!LO:TX:t=P:problem:kreska pseudotaktowa	!
.	.	.	.	2g\	-tem-	2d,\	-tes	2g\	-sa	[<[2dd\	juſ-
*	*	*	*	*	*	*	*Xij	*	*	*	*
!LO:TX:t=P:problem:kreska pseudotaktowa	!	!	!	!	!	!	!	!	!	!	!
!LO:SIC:v:t=custos “A”	!	!	!	!	!	!	!	!	!	!	!
4B-\	-ci-	4B-\	-ci-	.	.	.	.	.	.	.	.
!LO:LB:g=original	!	!	!	!LO:TX:t=P:problem:kreska pseudotaktowa	!	!	!	!	!	!	!
2A,\	-pu(m)	2A,/	-pu(m)	1a\	-nen-	2r	.	2f\	Prin-	2dd\]]<	.
!LO:TX:t=P:problem:kreska pseudotaktowa	!	!LO:TX:t=P:problem:kreska pseudotaktowa	!	!	!	!	!	!	!	!LO:TX:t=P:problem:kreska pseudotaktowa	!
2A\	qui	2A/	qui	.	.	1a\	juſ-	2e/	-ci-	2cc\	-sa
=29-	=29-	=29-	=29-	=29-	=29-	=29-	=29-	=29-	=29-	=29-	=29-
2D/	(con)-	2D/	(con)-	2f,\	-tes	.	.	2d,/	-pum	2dd\	Prin-
!	!	!	!	!	!	!	!	!LO:TX:t=P:problem:kreska pseudotaktowa	!	!	!
2E/	-tem-	2E/	-tem-	1e\	juſ-	2g\	-sa	2G/	Qui	2b/	-ci-
!LO:TX:t=P:problem:kreska pseudotaktowa	!	!	!	!	!	!	!	!	!	!LO:TX:t=P:problem:kreska pseudotaktowa	!
1F/	-nen-	1F/	-nen-	.	.	2.f\	Prin-	2A/	con-	1a/	-pum
.	.	.	.	2d\	-sa	.	.	4A/	-tem-	.	.
!	!	!	!	!	!	!	!	!LO:TX:t=P:problem:kreska pseudotaktowa	!	!	!
.	.	.	.	.	.	4f\	-ci-	4B/	-nen-	.	.
=30-	=30-	=30-	=30-	=30-	=30-	=30-	=30-	=30-	=30-	=30-	=30-
2C,/	-tes	2C,/	-tes	2e\	Prin-	2e,\	-pum	(4c/	.	2r	.
.	.	.	.	.	.	.	.	4d/	.	.	.
!	!	!	!	!	!	!LO:TX:t=P:problem:kreska pseudotaktowa	!	!	!	!	!
1c\	juſ-	1c\	juſ-	2c/	-ci-	2e\	Qui	4e/	.	1ee\	juſ-
.	.	.	.	.	.	.	.	4f/)	.	.	.
!	!	!	!	!LO:TX:t=P:problem:kreska pseudotaktowa	!	!	!	!	!	!	!
.	.	.	.	1G/,	-pu(m)	2c/	con-	1g\	.	.	.
!	!	!LO:SIC:v:t=custos ""A""	!	!	!	!	!	!	!	!	!
!LO:TX:t=P:problem:kreska pseudotaktowa	!	!LO:TX:t=P:problem:kreska pseudotaktowa	!	!	!	!	!	!	!	!LO:TX:t=P:problem:kreska pseudotaktowa	!
2B\	-sa	2Bn\	-sa	.	.	2d/	-tem-	.	.	2dd\	-sa
!	!	!LO:LB:g=original	!	!	!	!	!	!	!	!	!
=31-	=31-	=31-	=31-	=31-	=31-	=31-	=31-	=31-	=31-	=31-	=31-
!	!	!	!	!	!	!	!	!LO:TX:t=P:problem:kreska pseudotaktowa	!	!	!
1.A\	Prin-	1.A\	Prin-	2r	.	2.e\	-nen-	1a\	-tes	2.cc\	Prin-
.	.	.	.	1e\	juſ-	.	.	.	.	.	.
.	.	.	.	.	.	4d\	.	.	.	4b/	.
.	.	.	.	.	.	4c/	.	2r	.	2.a/	.
.	.	.	.	.	.	4B/	.	.	.	.	.
!	!	!	!	!	!	!LO:TX:t=P:problem:kreska pseudotaktowa	!	!	!	!	!
2F/	-ci-	2F/	-ci-	2d\	-sa	2A/	.	1a\	juſ-	.	.
.	.	.	.	.	.	.	.	.	.	4b/	.
!	!	!	!	!	!	!LO:LB:g=original	!	!	!	!	!
=32-	=32-	=32-	=32-	=32-	=32-	=32-	=32-	=32-	=32-	=32-	=32-
!LO:TX:t=P:problem:kreska pseudotaktowa	!	!LO:TX:t=P:problem:kreska pseudotaktowa	!	!	!	!LO:TX:t=P:problem:kreska pseudotaktowa	!	!	!	!	!
1E/,	-pum	1E/,	-pum	2c/	Prin-	1e\,	-tes	.	.	4cc\	.
.	.	.	.	.	.	.	.	.	.	4dd\	.
!	!	!	!	!	!	!	!	!LO:TX:t=P:problem:kreska pseudotaktowa	!	!	!
.	.	.	.	2B/	-ci-	.	.	2g\	-sa	2.ee\	.
0r	.	0r	.	0A/	-pu(m)	2.a\	juſ-	(2.f\	Prin-	.	.
.	.	.	.	.	.	.	.	.	.	4dd\	.
.	.	.	.	.	.	.	.	.	.	1dd\	.
.	.	.	.	.	.	4g\	.	4g\	.	.	.
=33-	=33-	=33-	=33-	=33-	=33-	=33-	=33-	=33-	=33-	=33-	=33-
!	!	!	!	!LO:TX:t=P:problem:kreska pseudotaktowa	!	!	!	!	!	!	!
.	.	.	.	.	.	2f\	-sa	2a\)	.	.	.
!	!	!	!	!	!	!	!	!	!	!LO:SIC:v:t=custos “dd”	!
!	!	!	!	!	!	!LO:TX:t=P:problem:kreska pseudotaktowa	!	!LO:TX:t=P:problem:kreska pseudotaktowa	!	!LO:TX:a:t=P:problem:# above	!
.	.	.	.	.	.	2e\	Prin-	2a\	-ci-	2cc#X\	-ci-
!	!	!	!	!	!	!	!	!LO:LB:g=original	!	!LO:LB:g=original	!
!	!	!	!	!	!	!	!	!	!	!LO:TX:t=P:problem:kreska pseudotaktowa	!
2r	.	2r	.	1r	.	(4d\	-ci-	2a,\	-pum,	1dd\,	-pum.
.	.	.	.	.	.	4e\	.	.	.	.	.
!LO:TX:t=P:problem:kreska pseudotaktowa:między nutą a kropką:łuk	!	!LO:TX:t=P:problem:kreska pseudotaktowa:między nutą a kropką:łuk	!	!	!	!	!	!	!	!	!
2.d\	Me-	2.d\	me-	.	.	4f\	.	1a\	me-	.	.
.	.	.	.	.	.	4g\)	.	.	.	.	.
=34-	=34-	=34-	=34-	=34-	=34-	=34-	=34-	=34-	=34-	=34-	=34-
!	!	!	!	!	!	!LO:TX:t=P:problem:kreska pseudotaktowa	!	!	!	!	!
.	.	.	.	2r	.	1a\,	-pum,	.	.	1r	.
!	!	!LO:TX:a:t=P:problem:# above	!	!	!	!	!	!	!	!	!
8c#X\L	.	8c#X\L	.	.	.	.	.	.	.	.	.
8B\J	.	8B\J	.	.	.	.	.	.	.	.	.
!	!	!LO:TX:a:t=P:problem:# above	!	!	!	!	!	!LO:TX:t=P:problem:kreska pseudotaktowa	!	!	!
4c#X\	.	4c#X\	.	2.a\	me-	.	.	2e/	-ru-	.	.
!LO:TX:t=P:problem:kreska pseudotaktowa	!	!	!	!	!	!	!	!	!	!	!
!	!	!LO:TX:t=P:problem:kreska pseudotaktowa	!	!	!	!	!	!	!	!	!
4c#\|	-ru-	4c#\	-ru-	.	.	.	.	.	.	.	.
1d\	-e-	1d\	-e-	.	.	2r	.	4f\	-e-	1dd\	me-
.	.	.	.	4g\	-ru-	.	.	4g\	.	.	.
.	.	.	.	2f\	-e-	(2.d\	me-	2a\	.	.	.
=35-	=35-	=35-	=35-	=35-	=35-	=35-	=35-	=35-	=35-	=35-	=35-
!LO:TX:t=P:problem:kreska pseudotaktowa	!	!LO:TX:t=P:problem:kreska pseudotaktowa	!	!LO:TX:t=P:problem:kreska pseudotaktowa	!	!	!	!LO:TX:t=P:problem:kreska pseudotaktowa	!	!	!
1A\,	-runt	1A\,	-runt	1e\,	-runt	.	.	1a\,	-runt	1ee\	-ru-
.	.	.	.	.	.	8c#X\L	.	.	.	.	.
.	.	.	.	.	.	8B\J	.	.	.	.	.
.	.	.	.	.	.	4c#X\)	.	.	.	.	.
.	.	.	.	.	.	4c#\	-ru-	.	.	.	.
!	!	!	!	!LO:LB:g=original	!	!	!	!	!	!	!
2.f\	prae-	2.f\	prae-	0r	.	1d\	-e-	2.a\	prae-	1ff\	-e-
4f\	-mi-	4f\	-mi-	.	.	.	.	4a\	-mi-	.	.
=36-	=36-	=36-	=36-	=36-	=36-	=36-	=36-	=36-	=36-	=36-	=36-
!	!	!	!	!LO:TX:t=P:problem:kreska pseudotaktowa	!	!LO:TX:t=P:problem:kreska pseudotaktowa	!	!	!	!LO:TX:t=P:problem:kreska pseudotaktowa	!
2f,\	-a	2f,\	-a	.	.	1A/,	-runt	2a,\	-a	1cc\	-runt
!LO:TX:t=P:problem:kreska pseudotaktowa	!	!LO:TX:t=P:problem:kreska pseudotaktowa	!	!	!	!	!	!	!	!	!
2e\	ae-	2e\	ae-	.	.	.	.	2a\	ae-	.	.
2d\	-ter-	2d\	-ter-	2.d\	prae-	0r	.	1a\	-ter-	2.ff\	prae-
4D/	.	4D/	.	.	.	.	.	.	.	.	.
!LO:TX:t=P:problem:kreska pseudotaktowa	!	!	!	!	!	!	!	!	!	!	!
4E/	.	4E/	.	4d\	-mi-	.	.	.	.	4ff\	-mi-
!LO:LB:g=original	!	!	!	!	!	!	!	!	!	!	!
=37-	=37-	=37-	=37-	=37-	=37-	=37-	=37-	=37-	=37-	=37-	=37-
!	!	!	!	!	!	!	!	!LO:TX:t=P:problem:kreska pseudotaktowa	!	!	!
4F/	.	4F/	.	2d\	-a	.	.	1a\,	-na	2ff\	-a
4G/	.	4G/	.	.	.	.	.	.	.	.	.
!	!	!	!	!LO:TX:t=P:problem:kreska pseudotaktowa	!	!	!	!	!	!LO:TX:t=P:problem:kreska pseudotaktowa	!
2A/	.	2A/	.	2c#X/	ae-	.	.	.	.	2ee\	ae-
!LO:TX:t=P:problem:kreska pseudotaktowa	!	!LO:TX:t=P:problem:kreska pseudotaktowa	!	!	!	!	!	!	!	!	!
1D/,	-na	1D/,	-na	1d\	-ter-	2.f\	prae-	2.a\	prae-	1.dd\	-ter-
.	.	.	.	.	.	4f\	-mi-	4a\	-mi-	.	.
=38-	=38-	=38-	=38-	=38-	=38-	=38-	=38-	=38-	=38-	=38-	=38-
!	!	!	!	!LO:TX:t=P:problem:kreska pseudotaktowa	!	!	!	!	!	!	!
1r	.	1r	.	1A/	-na	2f,\	-a	2a,\	-a	.	.
!	!	!	!	!	!	!LO:TX:t=P:problem:kreska pseudotaktowa	!	!	!	!LO:TX:t=P:problem:kreska pseudotaktowa	!
.	.	.	.	.	.	2e\	ae-	2g\	ae-	2cc\	.
!	!	!	!	!	!	!	!	!LO:TX:t=P:problem:kreska pseudotaktowa	!	!	!
1D/	me-	1D/	me-	0r	.	(2.d/	-ter-	1f\	-ter-	4bn/	.
.	.	.	.	.	.	.	.	.	.	4a/	.
.	.	.	.	.	.	.	.	.	.	1a/	.
.	.	.	.	.	.	4c/)	.	.	.	.	.
=39-	=39-	=39-	=39-	=39-	=39-	=39-	=39-	=39-	=39-	=39-	=39-
1E/	-ru-	1E/	-ru-	.	.	1B/	.	2e,/	-na	.	.
.	.	.	.	.	.	.	.	1e\	me-	2g#X/	.
!	!	!	!	!	!	!LO:TX:t=P:problem:kreska pseudotaktowa	!	!	!	!LO:TX:t=P:problem:kreska pseudotaktowa	!
1F/	-e-	1F/	-e-	2r	.	1A/,	-na	.	.	1a/,	-na
!	!	!	!	!	!	!	!	!LO:TX:t=P:problem:kreska pseudotaktowa	!	!	!
.	.	.	.	1a\	me-	.	.	2d/	-ru-	.	.
=40-	=40-	=40-	=40-	=40-	=40-	=40-	=40-	=40-	=40-	=40-	=40-
!LO:TX:t=P:problem:kreska pseudotaktowa	!	!LO:TX:t=P:problem:kreska pseudotaktowa	!	!	!	!LO:TX:t=P:problem:kreska pseudotaktowa	!	!	!	!	!
1E/	-runt	1E/	-runt	.	.	1r	.	(2c/	-e-	2.ee\	prae-
!	!	!	!	!	!	!	!	!LO:TX:t=P:problem:kreska pseudotaktowa	!	!	!
!	!	!	!	!	!	!	!	!LO:SIC:v:t=custos “A”	!	!	!
.	.	.	.	2g#X\	-ru-	.	.	2B/)	.	.	.
.	.	.	.	.	.	.	.	.	.	4ee\	-mi-
!	!	!	!	!	!	!	!	!LO:LB:g=original	!	!	!
2.F/	prae-	2.F/	prae-	1a\	-e-	2.c/	me-	2A,/	-runt	1cc\	-a
.	.	.	.	.	.	.	.	2.a\	prae-	.	.
!LO:TX:t=P:problem:kreska pseudotaktowa	!	!	!	!	!	!LO:TX:t=P:problem:kreska pseudotaktowa	!	!	!	!	!
4F/	-mi-	4F/	-mi-	.	.	4c/	-ru-	.	.	.	.
=41-	=41-	=41-	=41-	=41-	=41-	=41-	=41-	=41-	=41-	=41-	=41-
!	!	!	!	!LO:TX:t=P:problem:kreska pseudotaktowa	!	!	!	!	!	!	!
1.F/,	-a	1.F/,	-a	1A/,	-runt	1.c\	-e-	.	.	0cc\	ae-
.	.	.	.	.	.	.	.	4a\	-mi-	.	.
.	.	.	.	.	.	.	.	1a\	-a	.	.
.	.	.	.	2.c/	prae-	.	.	.	.	.	.
!	!	!LO:TX:t=P:problem:kreska pseudotaktowa	!	!	!	!LO:TX:t=P:problem:kreska pseudotaktowa	!	!	!	!	!
2E/	ae-	2E/	ae-	.	.	2e\	-runt	2g\	ae-	.	.
.	.	.	.	4c/	-mi-	.	.	.	.	.	.
!	!	!LO:LB:g=original	!	!	!	!LO:LB:g=original	!	!	!	!	!
=42-	=42-	=42-	=42-	=42-	=42-	=42-	=42-	=42-	=42-	=42-	=42-
!	!	!	!	!	!	!	!	!LO:TX:t=P:problem:kreska pseudotaktowa	!	!	!
1D/	-ter-	1D/	-ter-	2c/	-a	(<2A/	prae-	1f\	-ter-	1dd\	-ter-
.	.	.	.	2B/	ae-	4d\)	.	.	.	.	.
.	.	.	.	.	.	4d\	-mi-	.	.	.	.
!LO:TX:t=P:problem:kreska pseudotaktowa	!	!LO:TX:t=P:problem:kreska pseudotaktowa	!	!	!	!LO:TX:t=P:problem:kreska pseudotaktowa	!	!	!	!	!
1C/,	-na	1C/,	-na	0c\	-ter-	1G/,	-a.	2e,/	-na.	0ee\	-na
.	.	.	.	.	.	.	.	1g\	Mo-	.	.
=43-	=43-	=43-	=43-	=43-	=43-	=43-	=43-	=43-	=43-	=43-	=43-
!	!	!	!	!	!	!	!	!	!	!LO:TX:t=P:problem:kreska pseudotaktowa	!
2r	.	2r	.	.	.	2r	.	.	.	.	.
!	!	!	!	!	!	!	!	!LO:TX:t=P:problem:kreska pseudotaktowa	!	!	!
1c\	Mo-	1c\	Mo-	.	.	1e\	mo-	2e\	-do	.	.
!	!	!	!	!	!	!	!	!	!	!LO:LB:g=original	!
!	!	!	!	!LO:TX:t=P:problem:kreska pseudotaktowa	!	!	!	!	!	!	!
.	.	.	.	1G/	-na.	.	.	2g\	co-	00r	.
!LO:TX:t=P:problem:kreska pseudotaktowa	!	!LO:TX:t=P:problem:kreska pseudotaktowa	!	!	!	!LO:TX:t=P:problem:kreska pseudotaktowa	!	!LO:TX:t=P:problem:kreska pseudotaktowa	!	!	!
2B\	-dò	2B\	-do	.	.	2d\	-do	2g\	-ro-	.	.
=44-	=44-	=44-	=44-	=44-	=44-	=44-	=44-	=44-	=44-	=44-	=44-
2c\	co-	2c\	co-	00r	.	2e\	co-	2.a\	-nan-	.	.
2d\	-ro-	2d\	-ro-	.	.	2f\	-ro-	.	.	.	.
.	.	.	.	.	.	.	.	4b\	.	.	.
4e\	-nan-	(4e\	-nan-	.	.	(4g\	-nan-	(4cc\	.	.	.
4d\	.	4d\	.	.	.	4f\	.	4b\	.	.	.
4c\	.	4c\	.	.	.	4e\	.	4a\	.	.	.
!LO:TX:t=P:problem:kreska pseudotaktowa	!	!	!	!	!	!LO:TX:t=P:problem:kreska pseudotaktowa	!	!LO:TX:t=P:problem:kreska pseudotaktowa	!	!	!
4B\	.	4B\)	.	.	.	4d\)	.	4g\)	.	.	.
=45-	=45-	=45-	=45-	=45-	=45-	=45-	=45-	=45-	=45-	=45-	=45-
!	!	!	!	!	!	!	!	!	!	!LO:TX:t=P:problem:kreska pseudotaktowa	!
4c\	.	4c\	.	.	.	4e\	.	4a\	.	.	.
4B\	.	4B\	.	.	.	4d\	.	4g\	.	.	.
!	!	!	!	!	!	!	!	!LO:TX:t=P:problem:kreska pseudotaktowa:między nutą a kropką:łuk	!	!	!
4A/	.	4A\	.	.	.	4c/	.	2.g\	.	.	.
!	!	!LO:TX:t=P:problem:kreska pseudotaktowa	!	!	!	!	!	!	!	!	!
4G/	.	4G/	.	.	.	4B/	.	.	.	.	.
1A\	.	1A\	.	.	.	1c\	.	.	.	2r	.
.	.	.	.	.	.	.	.	8f#X\L	.	.	.
.	.	.	.	.	.	.	.	8g\J	.	.	.
!	!	!	!	!	!	!	!	!LO:TX:a:t=P:problem:# above	!	!	!
.	.	.	.	.	.	.	.	2f#X\	.	1cc\	Mo-
=46-	=46-	=46-	=46-	=46-	=46-	=46-	=46-	=46-	=46-	=46-	=46-
!	!	!	!	!	!	!	!	!LO:TX:t=P:problem:kreska pseudotaktowa	!	!	!
!LO:TX:t=P:problem:kreska pseudotaktowa	!	!LO:TX:t=P:problem:kreska pseudotaktowa	!	!	!	!LO:TX:t=P:problem:kreska pseudotaktowa	!	!LO:SIC:v:t=custos “g”	!	!	!
1G/,	-tur	1G/	-tur	1g\	Mo-	1d\,	-tur	1g\,	-tur	.	.
!	!	!	!	!	!	!	!	!	!	!LO:TX:t=P:problem:kreska pseudotaktowa	!
.	.	.	.	.	.	.	.	.	.	2b\	-do
!LO:LB:g=original	!	!	!	!	!	!	!	!LO:LB:g=original	!	!	!
00r	.	00r	.	2e,\	-dò	00r	.	2g\	mo-	2cc\	co-
!	!	!	!	!LO:TX:t=P:problem:kreska pseudotaktowa	!	!	!	!	!	!	!
.	.	.	.	2f\	co-	.	.	2a,\	-do	2dd\	-ro-
=47-	=47-	=47-	=47-	=47-	=47-	=47-	=47-	=47-	=47-	=47-	=47-
.	.	.	.	2g\	-ro-	.	.	2b\	co-	4ee\	-nan-
.	.	.	.	.	.	.	.	.	.	4dd\	.
!	!	!	!	!	!	!	!	!LO:TX:t=P:problem:kreska pseudotaktowa	!	!	!
.	.	.	.	2.a\	-nan-	.	.	2cc\	-ro-	4cc\	.
!	!	!	!	!	!	!	!	!	!	!LO:TX:t=P:problem:kreska pseudotaktowa	!
.	.	.	.	.	.	.	.	.	.	4b\	.
.	.	.	.	.	.	.	.	2.a\	-nan-	2cc\	.
.	.	.	.	4g\	.	.	.	.	.	.	.
.	.	.	.	4f\	.	.	.	.	.	2.dd\	.
.	.	.	.	4e\	.	.	.	4g\	.	.	.
=48-	=48-	=48-	=48-	=48-	=48-	=48-	=48-	=48-	=48-	=48-	=48-
!	!	!	!	!	!	!LO:TX:t=P:problem:kreska pseudotaktowa	!	!	!	!	!
.	.	.	.	4f\	.	.	.	4a\	.	.	.
.	.	.	.	4e\	.	.	.	4g\	.	4cc\	.
!	!	!	!	!	!	!	!	!	!	!LO:TX:t=P:problem:kreska pseudotaktowa:między nutą a kropką:łuk	!
.	.	.	.	4d\	.	.	.	4f\	.	2.cc\	.
!	!	!	!	!LO:TX:t=P:problem:kreska pseudotaktowa	!	!	!	!LO:TX:t=P:problem:kreska pseudotaktowa	!	!	!
.	.	.	.	4c\	.	.	.	4e\	.	.	.
!	!	!	!	!LO:LB:g=original	!	!	!	!	!	!	!
!LO:TX:t=P:problem:kreska pseudotaktowa	!	!	!	!	!	!	!	!	!	!	!
1G/	et	1G/	et	1d\	.	1r	.	1g\	.	.	.
.	.	.	.	.	.	.	.	.	.	8b/L	.
.	.	.	.	.	.	.	.	.	.	8a/J	.
.	.	.	.	.	.	.	.	.	.	2b/	.
=49-	=49-	=49-	=49-	=49-	=49-	=49-	=49-	=49-	=49-	=49-	=49-
!	!	!	!	!LO:TX:t=P:problem:kreska pseudotaktowa	!	!	!	!LO:TX:t=P:problem:kreska pseudotaktowa	!	!LO:TX:t=P:problem:kreska pseudotaktowa	!
2C/	ac-	2C/	ac-	1c\,	-tur	1g\	et	1e\,	-tur,	1cc\	-tur,
2.c\	-ci-	2.c\	-ci-	.	.	.	.	.	.	.	.
.	.	.	.	00r	.	2c/	ac-	1g\	et	0r	.
4c\	-pi-	4c\	-pi-	.	.	.	.	.	.	.	.
!LO:TX:t=P:problem:kreska pseudotaktowa	!	!LO:TX:t=P:problem:kreska pseudotaktowa	!	!	!	!	!	!	!	!	!
2B\	-unt	2B\	-unt	.	.	2.g\	-ci-	.	.	.	.
=50-	=50-	=50-	=50-	=50-	=50-	=50-	=50-	=50-	=50-	=50-	=50-
1A\	pal-	1A\	pal-	.	.	.	.	2c/	ac-	.	.
.	.	.	.	.	.	4g\	-pi-	.	.	.	.
!	!	!	!	!	!	!LO:TX:t=P:problem:kreska pseudotaktowa	!	!	!	!	!
.	.	.	.	.	.	2f,\	-unt	2.cc\	-ci-	.	.
1G/	.	1G/	.	.	.	(2e\	pal-	.	.	1gg\	et
.	.	.	.	.	.	.	.	4cc\	-pi-	.	.
!	!	!	!	!	!	!	!	!LO:TX:t=P:problem:kreska pseudotaktowa	!	!	!
.	.	.	.	.	.	4d\	.	2b\	-unt	.	.
.	.	.	.	.	.	4e\	.	.	.	.	.
=51-	=51-	=51-	=51-	=51-	=51-	=51-	=51-	=51-	=51-	=51-	=51-
*	*	*	*	*	*	*	*	*lig	*	*	*
(4F/	.	4F/	.	.	.	2f\)	.	1a\	pal-	2cc/	ac-
4G/	.	4G/	.	.	.	.	.	.	.	.	.
4A/	.	4A/	.	.	.	4e\	.	.	.	2.cc/	-ci-
!LO:TX:t=P:problem:kreska pseudotaktowa	!	!LO:TX:t=P:problem:kreska pseudotaktowa	!	!	!	!LO:TX:t=P:problem:kreska pseudotaktowa	!	!	!	!	!
4B/)	.	4B/	.	.	.	4d\	.	.	.	.	.
4c\	.	4c\	.	1r	.	4e\	.	1g\	.	.	.
4d\	.	4d\	.	.	.	4f\	.	.	.	4cc/	-pi-
2e\	.	2e\	.	.	.	2.g\	.	.	.	2b/	-unt
!	!	!	!	!	!	!	!	!	!	!LO:TX:t=P:problem:kreska pseudotaktowa	!
*	*	*	*	*	*	*	*	*Xlig	*	*	*
=52-	=52-	=52-	=52-	=52-	=52-	=52-	=52-	=52-	=52-	=52-	=52-
!LO:TX:t=P:problem:kreska pseudotaktowa	!	!LO:TX:t=P:problem:kreska pseudotaktowa	!	!	!	!	!	!	!	!	!
*	*	*	*	*	*	*	*	*lig	*	*	*
1d\,	-mam	1d\	-mam	2r	.	.	.	1a\	.	1dd\	pal-
.	.	.	.	.	.	8f\L	.	.	.	.	.
.	.	.	.	.	.	8e\J	.	.	.	.	.
!	!	!	!	!	!	!LO:TX:a:t=P:problem:# above	!	!	!	!	!
.	.	.	.	2d\	et	2f#X\	.	.	.	.	.
!	!	!	!	!	!	!LO:TX:t=P:problem:kreska pseudotaktowa	!	!	!	!	!
2r	.	2r	.	2G/	ac-	1g\,	-mam	1b\	.	0dd\	-mam,
2G/	et	2G/	et	2.g\	-ci-	.	.	.	.	.	.
!	!	!LO:TX:t=P:problem:kreska pseudotaktowa	!	!	!	!	!	!	!	!	!
!LO:TX:t=P:problem:kreska pseudotaktowa	!	!LO:SIC:v:t=custos “D”	!	!	!	!	!	!	!	!	!
*	*	*	*	*	*	*	*	*Xlig	*	*	*
!	!	!LO:LB:g=original	!	!	!	!LO:LB:g=original	!	!	!	!	!
=53-	=53-	=53-	=53-	=53-	=53-	=53-	=53-	=53-	=53-	=53-	=53-
!	!	!	!	!	!	!	!	!LO:TX:t=P:problem:kreska pseudotaktowa	!	!LO:TX:t=P:problem:kreska pseudotaktowa	!
2D/	ac-	2D/	ac-	.	.	2r	.	0a\,	-mam,	.	.
.	.	.	.	4g\	-pi-	.	.	.	.	.	.
!	!	!	!	!LO:TX:t=P:problem:kreska pseudotaktowa	!	!	!	!	!	!	!
2.d\	-ci-	2.d\	-ci-	2f\	-unt	2d\	et	.	.	.	.
.	.	.	.	1e\	pal-	2A/	ac-	.	.	2r	.
4d\	-pi-	4d\	-pi-	.	.	.	.	.	.	.	.
!LO:TX:t=P:problem:kreska pseudotaktowa	!	!LO:TX:t=P:problem:kreska pseudotaktowa	!	!	!	!LO:TX:t=P:problem:kreska pseudotaktowa:między nutą a kropką:łuk	!	!	!	!LO:TX:t=P:problem:kreska pseudotaktowa	!
2c#X\	-unt	2c#X\	-unt	.	.	2.a\	-ci-	.	.	2ee\	et
!	!	!	!	!	!	!	!	!	!	!LO:LB:g=original	!
=54-	=54-	=54-	=54-	=54-	=54-	=54-	=54-	=54-	=54-	=54-	=54-
!	!	!	!	!LO:TX:t=P:problem:kreska pseudotaktowa	!	!	!	!	!	!	!
1.d\	pal-	1.d\	pal-	1d\,	-ma(m).	.	.	2r	.	2a/	ac-
.	.	.	.	.	.	4g\	-pi-	.	.	.	.
!	!	!	!	!	!	!	!	!LO:TX:t=P:problem:kreska pseudotaktowa	!	!	!
!	!	!	!	!	!	!	!	!LO:SIC:v:t=custos “f”	!	!	!
.	.	.	.	.	.	2f,\	-unt	2a\	et	2.ff\	-ci-
!	!	!	!	!	!	!	!	!LO:LB:g=original	!	!	!
.	.	.	.	0r	.	(2d\	pal-	2f\	ac-	.	.
.	.	.	.	.	.	.	.	.	.	4ff\	-pi-
!	!	!	!	!	!	!LO:TX:t=P:problem:kreska pseudotaktowa	!	!	!	!LO:TX:t=P:problem:kreska pseudotaktowa	!
2c\	.	2c\	.	.	.	2e\	.	2.a\	-ci-	2ee\	-un
=55-	=55-	=55-	=55-	=55-	=55-	=55-	=55-	=55-	=55-	=55-	=55-
*	*	*	*	*	*	*	*	*	*	*lig	*
1B-X\	.	1B-X\	.	.	.	2f\)	.	.	.	1dd\	pal-
.	.	.	.	.	.	.	.	4a\	-pi-	.	.
!	!	!	!	!	!	!	!	!LO:TX:t=P:problem:kreska pseudotaktowa	!	!	!
.	.	.	.	.	.	2d\	.	2g\	-unt	.	.
!LO:TX:t=P:problem:kreska pseudotaktowa	!	!LO:TX:t=P:problem:kreska pseudotaktowa	!	!	!	!	!	!	!	!	!
1A\,	-mam	1A\,	-ma(m)	2r	.	1e\	.	2.a\	pal-	1cc\	.
.	.	.	.	2a\	et	.	.	.	.	.	.
.	.	.	.	.	.	.	.	4g\	.	.	.
!LO:LB:g=original	!	!	!	!	!	!	!	!LO:TX:t=P:problem:kreska pseudotaktowa	!	!	!
*	*	*	*	*	*	*	*	*	*	*Xlig	*
=56-	=56-	=56-	=56-	=56-	=56-	=56-	=56-	=56-	=56-	=56-	=56-
!LO:TX:t=P:problem:kreska pseudotaktowa	!	!	!	!	!	!	!	!	!	!	!
!LO:TX:a:t=2	!	!	!	!	!	!	!	!	!	!LO:TX:t=P:problem:kreska pseudotaktowa	!
0r	.	0r	.	2d\	ac-	2.f\	.	(4f\	.	[>1dd\	.
.	.	.	.	.	.	.	.	4g\	.	.	.
.	.	.	.	2.f\	-ci-	.	.	2a\)	.	.	.
!	!	!	!	!	!	!LO:TX:t=P:problem:kreska pseudotaktowa	!	!	!	!	!
.	.	.	.	.	.	4e\	.	.	.	.	.
!	!	!	!	!	!	!	!	!LO:TX:t=P:problem:kreska pseudotaktowa	!	!	!
.	.	.	.	.	.	2d/	.	1a\,	-mam,	2dd\]	.
.	.	.	.	4f\	-pi-	.	.	.	.	.	.
!	!	!	!	!LO:TX:t=P:problem:kreska pseudotaktowa	!	!	!	!	!	!	!
.	.	.	.	2e\	-unt	1c\	.	.	.	4ee\	.
.	.	.	.	.	.	.	.	.	.	4ff\	.
=57-	=57-	=57-	=57-	=57-	=57-	=57-	=57-	=57-	=57-	=57-	=57-
1G/	et	1G/	et	1d\	pal-	.	.	2r	.	2.gg\	.
.	.	.	.	.	.	2B/	.	1g\	et	.	.
!	!	!	!	!	!	!	!	!	!	!LO:TX:t=P:problem:kreska pseudotaktowa	!
.	.	.	.	.	.	.	.	.	.	4ff\	.
!	!	!	!	!LO:TX:t=P:problem:kreska pseudotaktowa	!	!	!	!	!	!	!
2C/	ac-	2C/	ac-	1e\,	-ma(m),	1c\	.	.	.	2ee,\	-mam
!	!	!	!	!	!	!	!	!LO:TX:t=P:problem:kreska pseudotaktowa	!	!	!
2.c\	-ci-	2.c\	-ci-	.	.	.	.	2e\	ac-	1ee\	et
=58-	=58-	=58-	=58-	=58-	=58-	=58-	=58-	=58-	=58-	=58-	=58-
!	!	!	!	!	!	!LO:TX:t=P:problem:kreska pseudotaktowa	!	!	!	!	!
.	.	.	.	2r	.	1G/,	-mam	2.g\	-ci-	.	.
4c\	-pi-	4c\	-pi-	.	.	.	.	.	.	.	.
!LO:TX:t=P:problem:kreska pseudotaktowa	!	!LO:TX:t=P:problem:kreska pseudotaktowa	!	!	!	!	!	!	!	!LO:TX:t=P:problem:kreska pseudotaktowa	!
2B\	-unt	2B\	-unt	2g\	et	.	.	.	.	2dd\	ac-
.	.	.	.	.	.	.	.	4d/	-pi-	.	.
4A\	pal-	4A\	pal-	2c/	ac-	0r	.	2f,\	-unt	1.cc\	-ci-
4B\	.	4B\	.	.	.	.	.	.	.	.	.
!	!	!	!	!LO:TX:t=P:problem:kreska pseudotaktowa:między nutą a kreską:łuk	!	!	!	!LO:TX:t=P:problem:kreska pseudotaktowa	!	!	!
4c\	.	4c\	.	2.g\	-ci-	.	.	2e\	pal-	.	.
4d\	.	4d\	.	.	.	.	.	.	.	.	.
=59-	=59-	=59-	=59-	=59-	=59-	=59-	=59-	=59-	=59-	=59-	=59-
4e\	.	4e\	.	.	.	.	.	2c,/	-mam	.	.
4d\	.	4d\	.	4f\	-pi-	.	.	.	.	.	.
4c\	.	4c\	.	2e\	-unt	.	.	2g\	et	2cc\	-pi-
!LO:TX:t=P:problem:kreska pseudotaktowa	!	!LO:TX:t=P:problem:kreska pseudotaktowa	!	!	!	!	!	!	!	!	!
4B\	.	4B\	.	.	.	.	.	.	.	.	.
!	!	!	!	!	!	!	!	!	!	!LO:TX:t=P:problem:kreska pseudotaktowa	!
4A/	.	4A/	.	4f\	pal-	1r	.	2c/	ac-	1cc\,	-unt
4G/	.	4G/	.	4g\	.	.	.	.	.	.	.
!	!	!	!	!	!	!	!	!LO:TX:t=P:problem:kreska pseudotaktowa:między nutą a kropką:łuk	!	!	!
4F/	.	4F/	.	(4a\	.	.	.	2.cc\	-ci-	.	.
4E/	.	4E/	.	4g\	.	.	.	.	.	.	.
=60-	=60-	=60-	=60-	=60-	=60-	=60-	=60-	=60-	=60-	=60-	=60-
1D/	.	1D/	.	4f\	.	1d\	et	.	.	1dd\	pal-
.	.	.	.	4e\)	.	.	.	4cc\	-pi-	.	.
!	!	!	!	!LO:TX:t=P:problem:kreska pseudotaktowa	!	!	!	!	!	!	!
.	.	.	.	2d\	.	.	.	2b,\	-unt	.	.
!	!	!	!	!LO:LB:g=original	!	!	!	!	!	!	!
!LO:TX:t=P:problem:kreska pseudotaktowa	!	!LO:TX:t=P:problem:kreska pseudotaktowa	!	!	!	!	!	!	!	!LO:TX:t=P:problem:kreska pseudotaktowa	!
1C/,	-mam	1C/,	-mam	2g,\	-mam,	2G/	ac-	(2cc\	pal-	1ee\,	-mam
.	.	.	.	2g\	et	2.c/	-ci-	2g\)	.	.	.
=61-	=61-	=61-	=61-	=61-	=61-	=61-	=61-	=61-	=61-	=61-	=61-
!	!	!	!	!	!	!	!	!LO:TX:t=P:problem:kreska pseudotaktowa	!	!	!
!	!	!	!	!	!	!	!	!LO:SIC:v:t=custos “d”	!	!	!
*	*	*	*ij	*	*	*	*	*	*	*	*
1G/	et	1G/	et	2e\	ac-	.	.	1g\,	-mam	2r	.
.	.	.	.	.	.	4c/	-pi-	.	.	.	.
!	!	!	!	!	!	!LO:TX:t=P:problem:kreska pseudotaktowa	!	!	!	!	!
.	.	.	.	2.g\	-ci-	2B/	unt	.	.	1dd\	et
!	!	!	!	!	!	!	!	!LO:PB:g=original	!	!	!
1D/	ac-	1D/	ac-	.	.	(2A/	pal-	2r	.	.	.
.	.	.	.	4g\	-pi-	.	.	.	.	.	.
!	!	!	!	!	!	!	!	!	!	!LO:TX:t=P:problem:kreska pseudotaktowa	!
!	!	!	!	!LO:TX:t=P:problem:kreska pseudotaktowa	!	!	!	!LO:TX:t=P:problem:kreska pseudotaktowa	!	!LO:SIC:v:t=custos “cc”	!
.	.	.	.	2f\	-unt	2d\)	.	2d/	et	2a/	ac-
!	!	!	!	!	!	!	!	!	!	!LO:LB:g=original	!
=62-	=62-	=62-	=62-	=62-	=62-	=62-	=62-	=62-	=62-	=62-	=62-
!	!	!	!	!	!	!LO:TX:t=P:problem:kreska pseudotaktowa	!	!	!	!	!
2.C/	-ci-	2.C/	-ci-	1e\	pal-	1G/,	-mam	2e/	ac-	2.cc\	-ci-
!	!	!	!	!	!	!	!	!LO:TX:t=P:problem:kreska pseudotaktowa:między nutą a kropką:łuk	!	!	!
.	.	.	.	.	.	.	.	2.g\	-ci-	.	.
4C/	-pi-	4C/	-pi-	.	.	.	.	.	.	4cc\	-pi-
!	!	!	!	!	!	!LO:LB:g=original	!	!	!	!	!
!LO:TX:t=P:problem:kreska pseudotaktowa	!	!LO:TX:t=P:problem:kreska pseudotaktowa	!	!LO:TX:t=P:problem:kreska pseudotaktowa	!	!	!	!	!	!	!
1D/	-unt	1D/,	-unt	1d\,	-ma(m)	2r	.	.	.	2b,/	-unt
.	.	.	.	.	.	.	.	4g\	pi-	.	.
!	!	!	!	!	!	!	!	!	!	!LO:TX:t=P:problem:kreska pseudotaktowa	!
!	!	!	!	!	!	!	!	!LO:TX:t=P:problem:kreska pseudotaktowa	!	!LO:TX:t=P:problem:kreska pseudotaktowa:między nutą a kropką:łuk	!
.	.	.	.	.	.	2d\	et	2f\	-unt	2.a/	pal-
=63-	=63-	=63-	=63-	=63-	=63-	=63-	=63-	=63-	=63-	=63-	=63-
*	*	*	*	*	*ij	*	*	*	*	*	*
0D/	pal-	0D/	pal-	1d\	et	2A/	ac-	4f/	pal-	.	.
.	.	.	.	.	.	.	.	4e/	.	4g/	.
.	.	.	.	.	.	2.d\	-ci-	4d/	.	4f/	.
!	!	!	!	!	!	!	!	!LO:TX:t=P:problem:kreska pseudotaktowa	!	!	!
.	.	.	.	.	.	.	.	4e/	.	4g/	.
.	.	.	.	2A/	ac-	.	.	4f/	.	2a/	.
.	.	.	.	.	.	4c/	-pi-	4e/	.	.	.
!	!	!	!	!	!	!LO:TX:t=P:problem:kreska pseudotaktowa	!	!	!	!	!
.	.	.	.	2.d\	-ci-	2B/	-unt	4d/	.	4b/	.
!	!	!	!	!	!	!	!	!LO:TX:t=P:problem:kreska pseudotaktowa	!	!	!
.	.	.	.	.	.	.	.	4e/	.	4cc/	.
=64-	=64-	=64-	=64-	=64-	=64-	=64-	=64-	=64-	=64-	=64-	=64-
!LO:TX:t=P:problem:kreska pseudotaktowa	!	!	!	!	!	!	!	!	!	!	!
!LO:SIC:v:t=custos “G”	!	!LO:TX:t=P:problem:kreska pseudotaktowa	!	!	!	!	!	!	!	!	!
0D/,	-mam	0D/,	-mam	.	.	(2A/	pal-	2f\	.	0dd\	.
*	*	*	*Xij	*	*	*	*	*	*	*	*
.	.	.	.	4c/	-pi-	.	.	.	.	.	.
!	!	!	!	!LO:TX:t=P:problem:kreska pseudotaktowa	!	!	!	!LO:TX:t=P:problem:kreska pseudotaktowa:między nutą a kropką:łuk	!	!	!
.	.	.	.	2B/	-unt	4B/	.	2.g\	.	.	.
.	.	.	.	.	.	4c/)	.	.	.	.	.
.	.	.	.	1A/	pal-	1d\	.	.	.	.	.
.	.	.	.	.	.	.	.	8f#X\L	.	.	.
.	.	.	.	.	.	.	.	8d\J	.	.	.
!	!	!	!	!	!	!	!	!LO:TX:t=P:problem:kreska pseudotaktowa	!	!	!
.	.	.	.	.	.	.	.	2f#X\	.	.	.
!LO:LB:g=original	!	!LO:LB:g=original	!	!	!	!	!	!	!	!	!
=65-	=65-	=65-	=65-	=65-	=65-	=65-	=65-	=65-	=65-	=65-	=65-
!	!	!	!	!LO:TX:t=P:problem:kreska pseudotaktowa	!	!	!	!LO:TX:t=P:problem:kreska pseudotaktowa	!	!LO:TX:t=P:problem:kreska pseudotaktowa	!
2r	.	2r	.	0G/,	-ma(m)	2d,\	-mam	1g\,	-mam	1b\,	-mam
*	*	*	*	*	*Xij	*	*	*	*	*	*
!	!	!	!	!	!	!LO:TX:t=P:problem:kreska pseudotaktowa	!	!	!	!	!
1G/	et	1G/	et	.	.	2d\	et	.	.	.	.
.	.	.	.	.	.	2B/	ac-	1g\	et	2r	.
!LO:TX:t=P:problem:kreska pseudotaktowa	!	!LO:TX:t=P:problem:kreska pseudotaktowa	!	!	!	!	!	!	!	!	!
2C/	ac-	2C/	ac-	.	.	2.c/	-ci-	.	.	1gg\	et
=66-	=66-	=66-	=66-	=66-	=66-	=66-	=66-	=66-	=66-	=66-	=66-
2.G/	-ci-	2.G/	-ci-	2r	.	.	.	2e\	ac-	.	.
.	.	.	.	.	.	4c/	-pi-	.	.	.	.
!	!	!	!	!LO:TX:t=P:problem:kreska pseudotaktowa	!	!LO:TX:t=P:problem:kreska pseudotaktowa	!	!	!	!	!
.	.	.	.	2g\	et	2B/	-unt	2.g\	-ci-	2dd\	ac-
4G/	-pi-	4G/	-pi-	.	.	.	.	.	.	.	.
!LO:TX:t=P:problem:kreska pseudotaktowa	!	!LO:TX:t=P:problem:kreska pseudotaktowa	!	!	!	!	!	!	!	!	!
1C/	-unt	1C/	-unt	2e\	ac-	(4c\	pal-	.	.	2.ee\	-ci-
.	.	.	.	.	.	4d\	.	4f\	-pi-	.	.
!	!	!	!	!	!	!	!	!LO:TX:t=P:problem:kreska pseudotaktowa	!	!	!
!	!	!	!	!	!	!	!	!LO:SIC:v:t=custos “e”	!	!	!
.	.	.	.	2.g\	-ci-	4e\	.	2e\	-unt	.	.
!	!	!	!	!	!	!	!	!	!	!LO:TX:t=P:problem:kreska pseudotaktowa	!
.	.	.	.	.	.	4f\)	.	.	.	4dd\	-pi-
!	!	!	!	!	!	!	!	!LO:LB:g=original	!	!	!
=67-	=67-	=67-	=67-	=67-	=67-	=67-	=67-	=67-	=67-	=67-	=67-
4C/	pal-	(4C/	pal-	.	.	2g\	.	(4e\	pal-	2cc\	-unt
4D/	.	4D/	.	4f\	-pi-	.	.	4f\	.	.	.
!	!	!	!	!LO:TX:t=P:problem:kreska pseudotaktowa	!	!LO:TX:t=P:problem:kreska pseudotaktowa	!	!	!	!	!
4E/	.	4E/	.	2e\	-unt	2g\	-ma(m)	4g\	.	2cc\	pal-
!LO:TX:t=P:problem:kreska pseudotaktowa	!	!	!	!	!	!	!	!	!	!	!
4F/	.	4F/)	.	.	.	.	.	4a\)	.	.	.
(4G/	.	4G/	.	(2d\	pal-	2r	.	4bn\	.	2g,/	-ma(m)
4F/	.	4F/	.	.	.	.	.	4a\	.	.	.
4E/	.	4E/	.	4e\	.	(2.e\	pal-	4g\	.	2.gg\	pal-
!LO:TX:t=P:problem:kreska pseudotaktowa	!	!LO:TX:t=P:problem:kreska pseudotaktowa	!	!	!	!	!	!LO:TX:t=P:problem:kreska pseudotaktowa	!	!	!
4D/)	.	4D/	.	4f\)	.	.	.	4f\	.	.	.
=68-	=68-	=68-	=68-	=68-	=68-	=68-	=68-	=68-	=68-	=68-	=68-
0.C/	.	0.C/	.	2.g\	.	.	.	4e\	.	.	.
.	.	.	.	.	.	4d\	.	4f\	.	4ff\	.
.	.	.	.	.	.	4c\	.	2.g\	.	4ee\	.
!	!	!	!	!LO:TX:t=P:problem:kreska pseudotaktowa	!	!LO:TX:t=P:problem:kreska pseudotaktowa	!	!	!	!	!
.	.	.	.	4f\	.	4d\)	.	.	.	4dd\	.
.	.	.	.	4e\	.	(4e\	.	.	.	0cc\	.
.	.	.	.	4d\	.	4f\	.	4f\	.	.	.
.	.	.	.	2c/	.	4g\	.	4e\	.	.	.
!	!	!	!	!	!	!	!	!LO:TX:t=P:problem:kreska pseudotaktowa	!	!	!
.	.	.	.	.	.	4f\)	.	4f\	.	.	.
=69-	=69-	=69-	=69-	=69-	=69-	=69-	=69-	=69-	=69-	=69-	=69-
.	.	.	.	00G/;	-mam	4e\	.	1g\	.	.	.
.	.	.	.	.	.	4d\	.	.	.	.	.
.	.	.	.	.	.	2e\	.	.	.	.	.
!	!	!	!	!	!	!LO:TX:b:t=Vertat(ur)	!	!	!	!	!
0.G/;	-mam.	0.G/;	-mam.	.	.	0.d\;	mam.	0.g\;	-mam.	0.b\;	-mam
!LO:TX:b:t=Vertat(ur)	!	!	!	!	!	!	!	!	!	!LO:TX:b:t=Vertat(ur)	!
!LO:PB:g=original	!	!	!	!LO:LB:g=original	!	!LO:PB:g=original	!	!	!	!LO:PB:g=original	!
=70||-	=70||-	=70||-	=70||-	=70||-	=70||-	=70||-	=70||-	=70||-	=70||-	=70||-	=70||-
*M3/2	*	*M3/2	*	*M3/2	*	*M3/2	*	*M3/2	*	*M3/2	*
00.r	.	00.r	.	00.r	.	00.r	.	2r	.	2dd\	Is-
.	.	.	.	.	.	.	.	2g\	Is-	2dd\	-ti
!	!	!	!	!	!	!	!	!LO:TX:t=P:problem:kreska pseudotaktowa	!	!LO:TX:t=P:problem:kreska pseudotaktowa	!
.	.	.	.	.	.	.	.	2g\	-ti	2ee\	sunt
=71-	=71-	=71-	=71-	=71-	=71-	=71-	=71-	=71-	=71-	=71-	=71-
.	.	.	.	.	.	.	.	2a\	sunt	(2cc\	qui
!	!	!	!	!	!	!	!	!LO:TX:t=P:problem:kreska pseudotaktowa	!	!	!
.	.	.	.	.	.	.	.	1fn\	qui	2a/)	.
!	!	!	!	!	!	!	!	!	!	!LO:TX:t=P:problem:kreska pseudotaktowa	!
.	.	.	.	.	.	.	.	.	.	2.dd\	ve-
=72-	=72-	=72-	=72-	=72-	=72-	=72-	=72-	=72-	=72-	=72-	=72-
.	.	.	.	.	.	.	.	2d/	ve-	.	.
.	.	.	.	.	.	.	.	.	.	4cc/	-ne-
.	.	.	.	.	.	.	.	2.g\	.	4b/	.
.	.	.	.	.	.	.	.	.	.	4a/	.
!	!	!	!	!	!	!	!	!	!	!LO:TX:t=P:problem:kreska pseudotaktowa	!
.	.	.	.	.	.	.	.	.	.	2b/	.
!	!	!	!	!	!	!	!	!LO:TX:t=P:problem:kreska pseudotaktowa	!	!	!
.	.	.	.	.	.	.	.	4f\	.	.	.
=73-	=73-	=73-	=73-	=73-	=73-	=73-	=73-	=73-	=73-	=73-	=73-
.	.	.	.	.	.	.	.	2e\	.	2.cc/	.
.	.	.	.	.	.	.	.	2.a\	ne-	.	.
.	.	.	.	.	.	.	.	.	.	4a/	.
.	.	.	.	.	.	.	.	.	.	4cc/	.
!	!	!	!	!	!	!	!	!LO:TX:t=P:problem:kreska pseudotaktowa	!	!	!
!	!	!	!	!	!	!	!	!LO:SIC:v:t=custos “g”	!	!LO:TX:t=P:problem:kreska pseudotaktowa	!
.	.	.	.	.	.	.	.	4g\	.	4b/	.
!	!	!	!	!	!	!	!	!LO:LB:g=original	!	!	!
=74-	=74-	=74-	=74-	=74-	=74-	=74-	=74-	=74-	=74-	=74-	=74-
!LO:TX:t=P:problem:kreska pseudotaktowa	!	!LO:TX:t=P:problem:kreska pseudotaktowa	!	!	!	!	!	!	!	!	!
1.r	.	1.r	.	2r	.	2r	.	1g\	.	4a/	.
.	.	.	.	.	.	.	.	.	.	4g/	.
!	!	!	!	!	!	!	!	!	!	!LO:TX:t=P:problem:kreska pseudotaktowa	!
.	.	.	.	2r	.	2r	.	.	.	1a/	.
!	!	!	!	!LO:TX:t=P:problem:kreska pseudotaktowa	!	!LO:TX:t=P:problem:kreska pseudotaktowa	!	!LO:TX:t=P:problem:kreska pseudotaktowa	!	!	!
.	.	.	.	2d\	Is-	2d\	Is-	2f#X\	.	.	.
=75-	=75-	=75-	=75-	=75-	=75-	=75-	=75-	=75-	=75-	=75-	=75-
!	!	!	!	!	!	!	!	!	!	!LO:TX:t=P:problem:kreska pseudotaktowa	!
2G/	Is-	2G/	Is-	2d,\	-ti	2d,\	-ti	1g\	.	1.b\,	-runt
2G/	-ti	2G/	-ti	2e\	sunt	2e\	sunt	.	.	.	.
!LO:TX:t=P:problem:kreska pseudotaktowa	!	!LO:TX:t=P:problem:kreska pseudotaktowa	!	!LO:TX:t=P:problem:kreska pseudotaktowa	!	!LO:TX:t=P:problem:kreska pseudotaktowa	!	!	!	!	!
2A\	sunt	2A/	sunt	2c\	qui	2c/	qui	2e\	.	.	.
=76-	=76-	=76-	=76-	=76-	=76-	=76-	=76-	=76-	=76-	=76-	=76-
!	!	!	!	!	!	!	!	!LO:TX:t=P:problem:kreska pseudotaktowa	!	!	!
2F/	qui	2F/	qui	1A/	ve-	1A/	ve-	1.fn\,	-runt,	0.r	.
!LO:TX:t=P:problem:kreska pseudotaktowa	!	!LO:TX:t=P:problem:kreska pseudotaktowa	!	!	!	!	!	!	!	!	!
1D/	ve-	1D/	ve-	.	.	.	.	.	.	.	.
!	!	!	!	!LO:TX:t=P:problem:kreska pseudotaktowa:między nutą a kropką:łuk	!	!LO:TX:t=P:problem:kreska pseudotaktowaLmiędzy nutą a kropką:łuk	!	!	!	!	!
.	.	.	.	2.d\	.	2.d/	.	.	.	.	.
=77-	=77-	=77-	=77-	=77-	=77-	=77-	=77-	=77-	=77-	=77-	=77-
(2.G/	-ne-	2.G/	-ne-	.	.	.	.	2r	.	.	.
.	.	.	.	4c/	.	4c/	.	.	.	.	.
.	.	.	.	2B/	.	2B/	.	2g\	ex	.	.
4F/	.	4F/	.	.	.	.	.	.	.	.	.
!LO:TX:t=P:problem:kreska pseudotaktowa	!	!LO:TX:t=P:problem:kreska pseudotaktowa	!	!LO:TX:t=P:problem:kreska pseudotaktowa	!	!LO:TX:t=P:problem:kreska pseudotaktowa	!	!LO:TX:t=P:problem:kreska pseudotaktowa	!	!	!
2E/)	.	2E/	.	[2c/	-ne-	[2c/	-ne-	2g\	mag-	.	.
=78-	=78-	=78-	=78-	=78-	=78-	=78-	=78-	=78-	=78-	=78-	=78-
2F/	.	2F/	.	1c\]	.	1c\]	.	2a,\	-na	2r	.
!	!	!	!	!	!	!	!	!	!	!LO:TX:t=P:problem:kreska pseudotaktowa	!
1D/	.	1D/	.	.	.	.	.	2f\	tri-	1dd\	ex
!	!	!	!	!	!	!	!	!LO:TX:t=P:problem:kreska pseudotaktowa	!	!	!
.	.	.	.	2B/	.	2B/	.	2d/	-bu-	.	.
=79-	=79-	=79-	=79-	=79-	=79-	=79-	=79-	=79-	=79-	=79-	=79-
!LO:TX:t=P:problem:kreska pseudotaktowa	!	!	!	!LO:TX:t=P:problem:kreska pseudotaktowa	!	!	!	!	!	!	!
2C,/	-runt	2C,/	-runt	1.c\,	-runt.	2c/	-runt	2.g\	-la-	1ee\	mag-
2G,/	qui	2G,/	qui	.	.	2r	.	.	.	.	.
.	.	.	.	.	.	.	.	4f\	.	.	.
!	!	!	!	!	!	!	!	!	!	!LO:TX:t=P:problem:kreska pseudotaktowa	!
!LO:TX:t=P:problem:kreska pseudotaktowa	!	!LO:TX:t=P:problem:kreska pseudotaktowa	!	!	!	!LO:TX:t=P:problem:kreska pseudotaktowa	!	!	!	!LO:SIC:v:t=custos “cc”	!
[2A/	ve-	[2A/	ve-	.	.	2r	.	4e/	.	2cc\	-na
!	!	!	!	!	!	!	!	!LO:TX:t=P:problem:kreska pseudotaktowa	!	!	!
.	.	.	.	.	.	.	.	4d/	.	.	.
!	!	!	!	!	!	!	!	!	!	!LO:LB:g=original	!
=80-	=80-	=80-	=80-	=80-	=80-	=80-	=80-	=80-	=80-	=80-	=80-
2A/]	.	2A/]	.	00.r	.	00.r	.	2e\	.	2cc,\	.
!	!	!LO:SIC:v:t=custos “G”	!	!	!	!	!	!	!	!	!
1F/	-ne-	1F/	-ne-	.	.	.	.	2.f\	ti-	2a/	tri-
!	!	!	!	!	!	!	!	!	!	!LO:TX:t=P:problem:kreska pseudotaktowa	!
.	.	.	.	.	.	.	.	.	.	2dd\	-bu-
!	!	!	!	!	!	!	!	!LO:TX:t=P:problem:kreska pseudotaktowa	!	!	!
.	.	.	.	.	.	.	.	4e/	.	.	.
!	!	!LO:LB:g=original	!	!	!	!	!	!	!	!	!
=81-	=81-	=81-	=81-	=81-	=81-	=81-	=81-	=81-	=81-	=81-	=81-
!LO:TX:t=P:problem:kreska pseudotaktowa	!	!LO:TX:t=P:problem:kreska pseudotaktowa	!	!	!	!	!	!	!	!	!
1.G/	-runt	1.G/	-runt	.	.	.	.	(<2d/	-o-	4dd\	-la-
.	.	.	.	.	.	.	.	.	.	4cc\	.
.	.	.	.	.	.	.	.	2.g\)	.	4b/	.
.	.	.	.	.	.	.	.	.	.	4a/	.
.	.	.	.	.	.	.	.	.	.	4g/	.
!	!	!	!	!	!	!	!	!LO:TX:t=P:problem:kreska pseudotaktowa	!	!LO:TX:t=P:problem:kreska pseudotaktowa	!
.	.	.	.	.	.	.	.	4f\	.	4a/	.
=82-	=82-	=82-	=82-	=82-	=82-	=82-	=82-	=82-	=82-	=82-	=82-
1.r	.	1.r	.	.	.	.	.	4e\	.	4b\	.
.	.	.	.	.	.	.	.	4f\	.	4cc\	.
.	.	.	.	.	.	.	.	4g\	.	4dd\	.
.	.	.	.	.	.	.	.	4e\	.	4b\	.
.	.	.	.	.	.	.	.	4f\	.	4cc\	.
!	!	!	!	!	!	!	!	!LO:TX:t=P:problem:kreska pseudotaktowa	!	!LO:TX:t=P:problem:kreska pseudotaktowa	!
.	.	.	.	.	.	.	.	4g\	.	4b\	.
!	!	!	!	!	!	!	!	!LO:LB:g=original	!	!	!
=83-	=83-	=83-	=83-	=83-	=83-	=83-	=83-	=83-	=83-	=83-	=83-
2r	.	2r	.	.	.	.	.	4a\	.	2a/	.
.	.	.	.	.	.	.	.	4g\	.	.	.
2r	.	2r	.	.	.	.	.	2.g\	.	2dd\	.
!LO:TX:t=P:problem:kreska pseudotaktowa	!	!LO:TX:t=P:problem:kreska pseudotaktowa	!	!	!	!	!	!	!	!LO:TX:t=P:problem:kreska pseudotaktowa	!
2d\	ex	2d\	ex	.	.	.	.	.	.	2b\	-ti-
.	.	.	.	.	.	.	.	4f#X\	.	.	.
=84-	=84-	=84-	=84-	=84-	=84-	=84-	=84-	=84-	=84-	=84-	=84-
!	!	!	!	!	!	!	!	!LO:TX:t=P:problem:kreska pseudotaktowa	!	!	!
(2e\	mag-	(2e\	mag-	2r	.	2r	.	1.g\,	-ne	2cc\	-o-
2c\)	.	2c\)	.	2g\	ex	2g\	ex	.	.	2a/	.
!LO:TX:t=P:problem:kreska pseudotaktowa	!	!LO:TX:t=P:problem:kreska pseudotaktowa	!	!LO:TX:t=P:problem:kreska pseudotaktowa	!	!LO:TX:t=P:problem:kreska pseudotaktowa	!	!	!	!LO:TX:t=P:problem:kreska pseudotaktowa	!
2A\	-na	2A\	-na	2a\	mag-	2a\	mag-	.	.	2cc\	.
=85-	=85-	=85-	=85-	=85-	=85-	=85-	=85-	=85-	=85-	=85-	=85-
(2.d\	tri-	2.d\	tri-	2f,\	-na	2f,\	-na	2r	.	2dd,\	-ne
.	.	.	.	2d\	tri-	2d\	tri-	2a\	tri-	2dd\	et
4c\)	-bu-	4c\	-bu-	.	.	.	.	.	.	.	.
!	!	!	!	!LO:TX:t=P:problem:kreska pseudotaktowa	!	!LO:TX:t=P:problem:kreska pseudotaktowa	!	!LO:TX:t=P:problem:kreska pseudotaktowa	!	!LO:TX:t=P:problem:kreska pseudotaktowa	!
(4B\	-la-	(4B\	-la-	2g\	-bu-	2g\	-bu-	2a\	-bu-	2dd\	la-
!	!	!LO:TX:t=P:problem:kreska pseudotaktowa	!	!	!	!	!	!	!	!	!
4A\)	.	4A\)	.	.	.	.	.	.	.	.	.
=86-	=86-	=86-	=86-	=86-	=86-	=86-	=86-	=86-	=86-	=86-	=86-
(2G/	-ti-	2G/	-ti-	4g\	-la-	(4g\	-la-	(2bn\	-la-	(2dd\	-ve-
.	.	.	.	4f\	.	4f\)	.	.	.	.	.
2.c\)	.	2.c\	.	2.e\	-ti-	2.e\	-ti-	2g\)	.	2ccn\)	.
!	!	!	!	!	!	!	!	!LO:TX:t=P:problem:kreska pseudotaktowa	!	!LO:TX:t=P:problem:kreska pseudotaktowa	!
.	.	.	.	.	.	.	.	2g\	-ti-	2cc\	-runt
!LO:TX:t=P:problem:kreska pseudotaktowa	!	!LO:TX:t=P:problem:kreska pseudotaktowa	!	!	!	!	!	!	!	!	!
4B\	-o-	4B\	-o-	4d\	.	4d\	.	.	.	.	.
!LO:LB:g=original	!	!	!	!	!	!	!	!	!	!LO:LB:g=original	!
=87-	=87-	=87-	=87-	=87-	=87-	=87-	=87-	=87-	=87-	=87-	=87-
!	!	!	!	!	!	!	!	!	!	!LO:TX:t=P:problem:kreska pseudotaktowa	!
4A/	.	4A/	.	1.c\	-o-	1.c\	-o-	1g\	-o-	1.cc\	sto-
4G/	.	4G/	.	.	.	.	.	.	.	.	.
!LO:TX:t=P:problem:kreska pseudotaktowa	!	!	!	!	!	!	!	!	!	!	!
1A\	.	1A\	.	.	.	.	.	.	.	.	.
!	!	!	!	!	!	!	!	!LO:TX:t=P:problem:kreska pseudotaktowa	!	!	!
.	.	.	.	.	.	.	.	2f#X\	.	.	.
=88-	=88-	=88-	=88-	=88-	=88-	=88-	=88-	=88-	=88-	=88-	=88-
!	!	!	!	!LO:TX:t=P:problem:kreska pseudotaktowa	!	!LO:TX:t=P:problem:kreska pseudotaktowa	!	!	!	!	!
2G,/	-ne	2G,/	-ne	1.d\,	-ne	1.d\,	-ne	1g\,	-ne	2dd,\	-las,
2G/	et	2G/	et	.	.	.	.	.	.	2dd\	et
!LO:TX:t=P:problem:kreska pseudotaktowa	!	!LO:TX:t=P:problem:kreska pseudotaktowa	!	!	!	!	!	!LO:TX:t=P:problem:kreska pseudotaktowa	!	!LO:TX:t=P:problem:kreska pseudotaktowa	!
2G/	la-	2G/	la-	.	.	.	.	2g\	et	2ee\	la-
!	!	!	!	!LO:LB:g=original	!	!	!	!	!	!	!
=89-	=89-	=89-	=89-	=89-	=89-	=89-	=89-	=89-	=89-	=89-	=89-
(2G/	-ve-	(2G/	-ve-	2r	.	2r	.	2e\	la-	(2dd\	-ve-
2A/)	.	2A/)	.	2r	.	2r	.	2a\	-ve-	2cc\)	.
!	!	!	!	!	!	!LO:TX:t=P:problem:kreska pseudotaktowa	!	!	!	!	!
!LO:TX:t=P:problem:kreska pseudotaktowa	!	!LO:TX:t=P:problem:kreska pseudotaktowa	!	!LO:TX:t=P:problem:kreska pseudotaktowa	!	!LO:SIC:v:t=custos “c”	!	!LO:TX:t=P:problem:kreska pseudotaktowa	!	!LO:TX:t=P:problem:kreska pseudotaktowa	!
2A/	-runt	2A,/	-runt	2c/	et	2c/	et	[<2f\	-runt	2a,/	-runt
!	!	!	!	!	!	!LO:LB:g=original	!	!	!	!	!
=90-	=90-	=90-	=90-	=90-	=90-	=90-	=90-	=90-	=90-	=90-	=90-
1F/	sto-	1F/	sto-	2c/	la-	2c/	la-	2f\]	.	2cc\	sto-
.	.	.	.	2c/	-ve-	2c/	-ve-	2d/	sto-	4dd\	-las
.	.	.	.	.	.	.	.	.	.	4cc\	.
!LO:TX:t=P:problem:kreska pseudotaktowa	!	!	!	!LO:TX:t=P:problem:kreska pseudotaktowa	!	!LO:TX:t=P:problem:kreska pseudotaktowa	!	!LO:TX:t=P:problem:kreska pseudotaktowa:między nutą a kropką: łuk	!	!	!
2D/	-las	2D/	-las	2d/	-runt	2d/	-runt	2.g\	-las	4b/	.
!	!	!	!	!	!	!	!	!	!	!LO:TX:t=P:problem:kreska pseudotaktowa	!
.	.	.	.	.	.	.	.	.	.	4a/	.
=91-	=91-	=91-	=91-	=91-	=91-	=91-	=91-	=91-	=91-	=91-	=91-
2G/	su-	2G/	su-	4d/	ſto-	(4d/	ſto-	.	.	2g/	su-
.	.	.	.	4c,/	-las	4c/	.	4f\	.	.	.
2F,/	-as	2F,/	-as	4B/	su-	4B/	.	4e/	su-	2.cc,\	-as
.	.	.	.	4A/	.	4A/)	.	4d/	.	.	.
!	!	!LO:TX:t=P:problem:kreska pseudotaktowa	!	!	!	!	!	!	!	!	!
!LO:TX:t=P:problem:kreska pseudotaktowa	!	!LO:SIC:v:t=custos “C”	!	!LO:TX:t=P:problem:kreska pseudotaktowa	!	!LO:TX:t=P:problem:kreska pseudotaktowa	!	!LO:TX:t=P:problem:kreska pseudotaktowa	!	!	!
2E/	in	2E/	in	2G/	-as	2G/	-las	2c/	-as	.	.
!	!	!	!	!	!	!	!	!	!	!LO:TX:t=P:problem:kreska pseudotaktowa	!
.	.	.	.	.	.	.	.	.	.	4b/	in
!	!	!LO:LB:g=original	!	!	!	!	!	!LO:LB:g=original	!	!	!
=92-	=92-	=92-	=92-	=92-	=92-	=92-	=92-	=92-	=92-	=92-	=92-
(2C/	san-	2C/	san-	2.c/	san-	2.c/	san-	2c/	in	2.a/	San-
2.F/)	-gu-	2.F/	-gu-	.	.	.	.	2.f\	san-	.	.
.	.	.	.	4B/	-gu-	4B/	-gu-	.	.	4a/	-gu-
!	!	!	!	!LO:TX:t=P:problem:kreska pseudotaktowa	!	!LO:TX:t=P:problem:kreska pseudotaktowa	!	!	!	!LO:TX:t=P:problem:kreska pseudotaktowa	!
.	.	.	.	2A/	-i-	2A/	-i-	.	.	2a/	-i-
!	!	!LO:TX:t=P:problem:kreska pseudotaktowa	!	!	!	!	!	!LO:TX:t=P:problem:kreska pseudotaktowa	!	!	!
4F/	-i-	4F/	-i-	.	.	.	.	4e/	-gu-	.	.
=93-	=93-	=93-	=93-	=93-	=93-	=93-	=93-	=93-	=93-	=93-	=93-
2F,/	-ne	2F/	-ne	2A/	-ne	2A/	-ne	4d/	-i-	2a/	-ne
.	.	.	.	.	.	.	.	4c,/	-ne	.	.
!	!	!	!	!	!	!	!	!LO:TX:t=P:problem:kreska pseudotaktowa	!	!	!
1G/	a-	1G/	a-	4d/	a-	4d/	a-	1d/	a-	1g/	ag-
.	.	.	.	4c/	.	4c/	.	.	.	.	.
.	.	.	.	2B/	.	2B/	.	.	.	.	.
=94-	=94-	=94-	=94-	=94-	=94-	=94-	=94-	=94-	=94-	=94-	=94-
*M2/1	*	*M2/1	*	*M2/1	*	*M2/1	*	*M2/1	*	*M2/1	*
*met(C|)	*	*met(C|)	*	*met(C|)	*	*met(C|)	*	*met(C|)	*	*met(C|)	*
!	!	!	!	!	!	!	!	!	!	!LO:TX:t=P:problem:kreska pseudotaktowa	!
2C/	-gni.	2C/	-gni.	2c,/	-gni.	2c/	-gni.	2e,\	-gni	1g/	-ni
!LO:TX:t=P:problem:kreska pseudotaktowa	!	!LO:TX:t=P:problem:kreska pseudotaktowa	!	!LO:TX:t=P:problem:kreska pseudotaktowa	!	!LO:TX:t=P:problem:kreska pseudotaktowa	!	!	!	!	!
2r	.	2r	.	[2c/	Mo-	2r	.	1g\	Mo-	.	.
2r	.	2r	.	1c\]	.	2r	.	.	.	00r	.
!	!	!	!	!	!	!	!	!LO:TX:t=P:problem:kreska pseudotaktowa	!	!	!
1c\	Mo-	1c\	Mo-	.	.	1e\	Mo-	2e\	-dò	.	.
=95-	=95-	=95-	=95-	=95-	=95-	=95-	=95-	=95-	=95-	=95-	=95-
!	!	!	!	!LO:TX:t=P:problem:kreska pseudotaktowa	!	!	!	!	!	!	!
.	.	.	.	1G/	-dò	.	.	2g\	co-	.	.
!LO:TX:t=P:problem:kreska pseudotaktowa	!	!LO:TX:t=P:problem:kreska pseudotaktowa	!	!	!	!LO:TX:t=P:problem:kreska pseudotaktowa	!	!	!	!	!
2B\	-dò	2B\	-do	.	.	2d\	-dò	2g\	-ro-	.	.
2c\	co-	2c\	co-	00r	.	2e\	co-	(2.a\	-nan-	.	.
!	!	!LO:TX:t=P:problem:kreska pseudotaktowa	!	!	!	!	!	!	!	!	!
2d\	-ro-	2d\	-ro-	.	.	2f\	-ro-	.	.	.	.
!	!	!	!	!	!	!	!	!LO:TX:t=P:problem:kreska pseudotaktowa	!	!	!
.	.	.	.	.	.	.	.	4b\)	.	.	.
=96-	=96-	=96-	=96-	=96-	=96-	=96-	=96-	=96-	=96-	=96-	=96-
!	!	!	!	!	!	!	!	!	!	!LO:TX:t=P:problem:kreska pseudotaktowa	!
(4e\	-nan-	(4e\	-nan-	.	.	(4g\	-nan-	(4cc\	.	.	.
4d\	.	4d\	.	.	.	4f\	.	4b\	.	.	.
4c\	.	4c\	.	.	.	4e\	.	4a\	.	.	.
!	!	!LO:TX:t=P:problem:kreska pseudotaktowa	!	!	!	!LO:TX:t=P:problem:kreska pseudotaktowa	!	!	!	!	!
4B\)	.	4B\)	.	.	.	4d\)	.	4g\)	.	.	.
4c\	.	4c\	.	.	.	4e\	.	4a\	.	1r	.
4B\	.	4B\	.	.	.	4d\	.	4g\	.	.	.
!	!	!	!	!	!	!	!	!LO:TX:t=P:problem:kreska pseudotaktowa:między nutą a kropką:łuk	!	!	!
4A\	.	4A/	.	.	.	4c/	.	2.g\	.	.	.
!LO:TX:t=P:problem:kreska pseudotaktowa	!	!	!	!	!	!	!	!	!	!	!
!LO:SIC:v:t=custos “A”	!	!LO:TX:t=P:problem:kreska pseudotaktowa	!	!	!	!	!	!	!	!	!
4G\	.	4G/	.	.	.	4B/	.	.	.	.	.
!LO:LB:g=original	!	!	!	!	!	!	!	!	!	!	!
=97-	=97-	=97-	=97-	=97-	=97-	=97-	=97-	=97-	=97-	=97-	=97-
!	!	!	!	!LO:SIC:v:t=custos “g”	!	!	!	!	!	!	!
!	!	!	!	!LO:TX:t=P:problem:kreska pseudotaktowa	!	!	!	!	!	!	!
1A\	.	1A\	.	.	.	1c\	.	.	.	2r	.
.	.	.	.	.	.	.	.	8f\L	.	.	.
.	.	.	.	.	.	.	.	8e\J	.	.	.
!	!	!	!	!	!	!	!	!LO:TX:a:t=P:problem:# above	!	!	!
.	.	.	.	.	.	.	.	2f#X\	.	1cc\	Mo-
!	!	!	!	!LO:PB:g=original	!	!	!	!	!	!	!
!LO:TX:t=P:problem:kreska pseudotaktowa	!	!LO:TX:t=P:problem:kreska pseudotaktowa	!	!	!	!LO:TX:t=P:problem:kreska pseudotaktowa	!	!LO:TX:t=P:problem:kreska pseudotaktowa	!	!	!
1G/,	-tur	1G/,	-tur	(1g\	co-	1d\,	-tur	1g\,	-tur	.	.
!	!	!	!	!	!	!	!	!	!	!LO:TX:t=P:problem:kreska pseudotaktowa	!
.	.	.	.	.	.	.	.	.	.	2b\	-dò
=98-	=98-	=98-	=98-	=98-	=98-	=98-	=98-	=98-	=98-	=98-	=98-
00r	.	00r	.	2e\)	.	00r	.	2g\	mo-	2cc\	co-
!	!	!	!	!LO:TX:t=P:problem:kreska pseudotaktowa	!	!	!	!	!	!LO:TX:t=P:problem:kreska pseudotaktowa	!
.	.	.	.	2f\	-ro-	.	.	2a,\	-do	2dd\	-ro-
.	.	.	.	2g\	-nan-	.	.	2bn\	co-	(4ee\	-nan-
.	.	.	.	.	.	.	.	.	.	4dd\	.
!	!	!	!	!LO:TX:t=P:problem:kreska pseudotaktowa:między nutą a kropką:łuk	!	!	!	!LO:TX:t=P:problem:kreska pseudotaktowa	!	!	!
.	.	.	.	2.a\	.	.	.	2cc\	-ro-	4cc\	.
!	!	!	!	!	!	!	!	!	!	!LO:TX:t=P:problem:kreska pseudotaktowa	!
.	.	.	.	.	.	.	.	.	.	4b\)	.
=99-	=99-	=99-	=99-	=99-	=99-	=99-	=99-	=99-	=99-	=99-	=99-
!	!	!LO:TX:t=P:problem:kreska pseudotaktowa	!	!	!	!	!	!	!	!	!
!	!	!LO:SIC:v:t=custos “g”	!	!	!	!	!	!	!	!	!
.	.	.	.	.	.	.	.	(2.a\	-nan-	2cc\	.
.	.	.	.	4g\	.	.	.	.	.	.	.
.	.	.	.	4f\	.	.	.	.	.	2.dd\	.
.	.	.	.	4e\	.	.	.	4g\)	.	.	.
.	.	.	.	(4f\	.	.	.	4a\	.	.	.
.	.	.	.	4e\	.	.	.	4g\	.	4cc\	.
!	!	!	!	!	!	!	!	!	!	!LO:TX:t=P:problem:kreska pseudotaktowa	!
.	.	.	.	4d\	.	.	.	4f\	.	2.cc\	.
!	!	!	!	!LO:TX:t=P:problem:kreska pseudotaktowa	!	!	!	!	!	!	!
.	.	.	.	4c\)	.	.	.	4e\	.	.	.
!	!	!LO:PB:g=original	!	!	!	!	!	!	!	!	!
=100-	=100-	=100-	=100-	=100-	=100-	=100-	=100-	=100-	=100-	=100-	=100-
!	!	!	!	!	!	!LO:TX:t=P:problem:kreska pseudotaktowa	!	!	!	!	!
1G/,	et	1G/	et	1d\	.	1r	.	1g\	.	.	.
.	.	.	.	.	.	.	.	.	.	8b/L	.
.	.	.	.	.	.	.	.	.	.	8a/J	.
.	.	.	.	.	.	.	.	.	.	2b\	.
!	!	!	!	!LO:TX:t=P:problem:kreska pseudotaktowa	!	!	!	!LO:TX:t=P:problem:kreska pseudotaktowa	!	!LO:TX:t=P:problem:kreska pseudotaktowa	!
2C/	ac-	2C/	ac-	1c\,	-tur	1g\	et	1e\,	-tur	1cc\,	-tur
2.c\	-ci-	2.c\	-ci-	.	.	.	.	.	.	.	.
!	!	!	!	!	!	!	!	!LO:LB:g=original	!	!	!
=101-	=101-	=101-	=101-	=101-	=101-	=101-	=101-	=101-	=101-	=101-	=101-
!	!	!	!	!	!	!	!	!	!	!LO:TX:t=P:problem:kreska pseudotaktowa	!
.	.	.	.	00r	.	2c/	ac-	1g\,	et	0r	.
4c\	-pi-	4c\	-pi-	.	.	.	.	.	.	.	.
!LO:TX:t=P:problem:kreska pseudotaktowa	!	!LO:TX:t=P:problem:kreska pseudotaktowa	!	!	!	!	!	!	!	!	!
2B\	-unt	2B\	-unt	.	.	2.g\	-ci-	.	.	.	.
1A\	pal-	(<1A\	pal-	.	.	.	.	2c/	ac-	.	.
.	.	.	.	.	.	4g\	-pi-	.	.	.	.
!	!	!	!	!	!	!LO:TX:t=P:problem:kreska pseudotaktowa	!	!	!	!	!
.	.	.	.	.	.	2f\	-unt	2.cc\	-ci-	.	.
!	!	!	!	!	!	!LO:LB:g=original	!	!	!	!	!
=102-	=102-	=102-	=102-	=102-	=102-	=102-	=102-	=102-	=102-	=102-	=102-
1G/	.	1G/)	.	.	.	(2e\	pal-	.	.	1gg\	et
.	.	.	.	.	.	.	.	4cc\	-pi-	.	.
!	!	!	!	!	!	!	!	!LO:TX:t=P:problem:kreska pseudotaktowa	!	!	!
.	.	.	.	.	.	4d\	.	2b\	-unt	.	.
.	.	.	.	.	.	4e\	.	.	.	.	.
*	*	*	*	*	*	*	*	*lig	*	*	*
4F/	.	(4F/	.	.	.	2f\)	.	1a\	pal-	2cc\	ac-
4G/	.	4G/	.	.	.	.	.	.	.	.	.
4A/	.	4A/	.	.	.	4e\	.	.	.	2.cc\	-ci-
!LO:TX:t=P:problem:kreska pseudotaktowa	!	!	!	!	!	!LO:TX:t=P:problem:kreska pseudotaktowa	!	!	!	!	!
4B/	.	4B/)	.	.	.	4d\	.	.	.	.	.
=103-	=103-	=103-	=103-	=103-	=103-	=103-	=103-	=103-	=103-	=103-	=103-
!	!	!	!	!LO:TX:t=P:problem:kreska pseudotaktowa	!	!	!	!	!	!	!
4c\	.	4c\	.	1r	.	4e\	.	1g\	.	.	.
4d\	.	4d\	.	.	.	4f\	.	.	.	4cc\	-pi-
!	!	!	!	!	!	!	!	!	!	!LO:TX:t=P:problem:kreska pseudotaktowa	!
!	!	!	!	!	!	!	!	!	!	!LO:SIC:v:t=custos “dd”	!
2e\	.	2e\	.	.	.	2.g\	.	.	.	2b,\	-unt
!	!	!	!	!	!	!	!	!	!	!LO:LB:g=original	!
*	*	*	*	*	*	*	*	*Xlig	*	*	*
!LO:TX:t=P:problem:kreska pseudotaktowa	!	!LO:TX:t=P:problem:kreska pseudotaktowa	!	!	!	!	!	!	!	!	!
*	*	*	*	*	*	*	*	*lig	*	*	*
1d\,	-mam	1d\,	-mam	2r	.	.	.	1a\	.	1dd\	pal-
.	.	.	.	.	.	8f\L	.	.	.	.	.
.	.	.	.	.	.	8e\J	.	.	.	.	.
!	!	!	!	!LO:TX:t=P:problem:kreska pseudotaktowa	!	!LO:TX:a:t=P:problem:# above	!	!	!	!	!
.	.	.	.	2d\	et	2f#X\	.	.	.	.	.
=104-	=104-	=104-	=104-	=104-	=104-	=104-	=104-	=104-	=104-	=104-	=104-
!	!	!	!	!	!	!LO:TX:t=P:problem:kreska pseudotaktowa	!	!	!	!LO:TX:t=P:problem:kreska pseudotaktowa	!
2r	.	2r	.	2G/	ac-	1g\,	-mam	1b\	.	0dd\,	-mam
*	*ij	*	*	*	*	*	*	*	*	*	*
2G/	et	2G/	et	2.g\	-ci-	.	.	.	.	.	.
*	*	*	*	*	*	*	*	*Xlig	*	*	*
2D/	ac-	2D/	ac-	.	.	2r	.	0a\	-mam	.	.
.	.	.	.	4g\	-pi-	.	.	.	.	.	.
!	!	!	!	!LO:TX:t=P:problem:kreska pseudotaktowa	!	!	!	!	!	!	!
2.d\	-ci-	2.d\	-ci-	2f\	-unt	2d\	et	.	.	.	.
=105-	=105-	=105-	=105-	=105-	=105-	=105-	=105-	=105-	=105-	=105-	=105-
!	!	!	!	!	!	!	!	!LO:TX:t=P:problem:kreska pseudotaktowa	!	!	!
.	.	.	.	1e\	pal-	2A/	ac-	.	.	2r	.
4d\	-pi-	4d\	-pi-	.	.	.	.	.	.	.	.
!LO:TX:t=P:problem:kreska pseudotaktowa	!	!LO:TX:t=P:problem:kreska pseudotaktowa	!	!	!	!LO:TX:t=P:problem:kreska pseudotaktowa:między nutą a kropką:łuk	!	!	!	!LO:TX:t=P:problem:kreska pseudotaktowa	!
2c#X\	-unt	2c#X\	-unt	.	.	2.a\	-ci-	.	.	2ee\	et
!	!	!	!	!LO:TX:t=P:problem:kreska pseudotaktowa	!	!	!	!	!	!	!
1.d\	pal-	1.d\	palm-	1d\,	-ma(m)	.	.	2r	.	2a/	ac-
.	.	.	.	.	.	4g\	-pi-	.	.	.	.
!	!	!	!	!	!	!LO:TX:t=P:problem:kreska pseudotaktowa	!	!	!	!	!
.	.	.	.	.	.	2f\	-unt	2a\	et	2.ff\	-ci-
=106-	=106-	=106-	=106-	=106-	=106-	=106-	=106-	=106-	=106-	=106-	=106-
.	.	.	.	0r	.	(2d\	pal-	2f\	ac-	.	.
.	.	.	.	.	.	.	.	.	.	4ff\	-pi-
!	!	!	!	!	!	!	!	!	!	!LO:TX:t=P:problem:kreska pseudotaktowa	!
2c\	.	2c\	.	.	.	2e\	.	2.a\	-ci-	2ee\	-unt
*	*	*	*	*	*	*	*	*	*	*lig	*
1B-X\	.	1B-X\	.	.	.	2f\)	.	.	.	1dd\	pal-
.	.	.	.	.	.	.	.	4a\	-pi-	.	.
!	!	!	!	!	!	!LO:TX:t=P:problem:kreska pseudotaktowa	!	!LO:TX:t=P:problem:kreska pseudotaktowa	!	!	!
.	.	.	.	.	.	2d\	.	2g\	-unt	.	.
=107-	=107-	=107-	=107-	=107-	=107-	=107-	=107-	=107-	=107-	=107-	=107-
!LO:TX:t=P:problem:kreska pseudotaktowa	!	!LO:TX:t=P:problem:kreska pseudotaktowa	!	!	!	!	!	!	!	!	!
1A\,	mam	1A\,	am	2r	.	1e\	.	2.a\	pal-	1cc\	.
.	.	.	.	2a\	et	.	.	.	.	.	.
.	.	.	.	.	.	.	.	4g\	.	.	.
!	!	!	!	!LO:TX:t=P:problem:kreska pseudotaktowa	!	!	!	!	!	!	!
*	*Xij	*	*	*	*	*	*	*	*	*Xlig	*
!	!	!	!	!	!	!	!	!	!	!LO:TX:t=P:problem:kreska pseudotaktowa	!
0r	.	0r	.	2d\	ac-	2.f\	.	(4f\	.	1.dd\	.
.	.	.	.	.	.	.	.	4g\	.	.	.
.	.	.	.	2.f\	-ci-	.	.	2a\)	.	.	.
.	.	.	.	.	.	4e\	.	.	.	.	.
=108-	=108-	=108-	=108-	=108-	=108-	=108-	=108-	=108-	=108-	=108-	=108-
!	!	!	!	!	!	!	!	!LO:TX:t=P:problem:kreska pseudotaktowa	!	!	!
.	.	.	.	.	.	2d/	.	1a\,	-mam	.	.
.	.	.	.	4f\	-pi-	.	.	.	.	.	.
!	!	!	!	!LO:TX:t=P:problem:kreska pseudotaktowa	!	!	!	!	!	!	!
.	.	.	.	2e\	-unt	1c\	.	.	.	4ee\	.
!	!	!	!	!	!	!	!	!	!	!LO:TX:t=P:problem:kreska pseudotaktowa	!
.	.	.	.	.	.	.	.	.	.	4ff\	.
1G/	et	1G/	et	1d\	pal-	.	.	2r	.	2.gg\	.
.	.	.	.	.	.	2B/	.	1g\	et	.	.
!	!	!	!	!	!	!	!	!	!	!LO:TX:t=P:problem:kreska pseudotaktowa	!
.	.	.	.	.	.	.	.	.	.	4ff\	.
=109-	=109-	=109-	=109-	=109-	=109-	=109-	=109-	=109-	=109-	=109-	=109-
!	!	!	!	!LO:TX:t=P:problem:kreska pseudotaktowa	!	!	!	!	!	!	!
2C/	ac-	2C/	ac-	1e\,	-ma(m)	1c\	.	.	.	2ee,\	-mam.
2.c\	-ci-	2.c\	-ci-	.	.	.	.	2e/	ac-	1ee\	et
!	!	!	!	!	!	!LO:TX:t=P:problem:kreska pseudotaktowa	!	!	!	!	!
.	.	.	.	2r	.	1G/,	-mam	2.g\	-ci-	.	.
4c\	-pi-	4c\	-pi-	.	.	.	.	.	.	.	.
!LO:TX:t=P:problem:kreska pseudotaktowa	!	!LO:TX:t=P:problem:kreska pseudotaktowa	!	!	!	!	!	!	!	!	!
2B\	-unt	2B\	-unt	2g\	et	.	.	.	.	2dd\	ac-
.	.	.	.	.	.	.	.	4d/	-pi-	.	.
!LO:LB:g=original	!	!	!	!	!	!	!	!	!	!	!
=110-	=110-	=110-	=110-	=110-	=110-	=110-	=110-	=110-	=110-	=110-	=110-
4A\	pal-	(4A\	pal-	2c/	ac-	0r	.	2f,\	-unt	1.cc\	-ci-
4B\	.	4B\	.	.	.	.	.	.	.	.	.
!	!	!	!	!	!	!	!	!LO:TX:t=P:problem:kreska pseudotaktowa	!	!	!
4c\	.	4c\	.	2.g\	-ci-	.	.	2e/	pal-	.	.
!LO:TX:t=P:problem:kreska pseudotaktowa	!	!	!	!	!	!	!	!	!	!	!
4d\	.	4d\)	.	.	.	.	.	.	.	.	.
4e\	.	(4e\	.	.	.	.	.	2c,/	-ma(m)	.	.
4d\	.	4d\	.	4f\	-pi-	.	.	.	.	.	.
4c\	.	4c\	.	2e\	-unt	.	.	2g\	et	2cc\	-pi-
4B\	.	4B\)	.	.	.	.	.	.	.	.	.
!	!	!	!	!LO:LB:g=original	!	!	!	!LO:LB:g=original	!	!	!
=111-	=111-	=111-	=111-	=111-	=111-	=111-	=111-	=111-	=111-	=111-	=111-
!	!	!	!	!	!	!	!	!	!	!LO:TX:t=P:problem:kreska pseudotaktowa	!
4A/	.	4A/	.	(4f\	pal-	1r	.	2c/	ac-	1cc\	-unt
4G/	.	4G/	.	4g\	.	.	.	.	.	.	.
4F/	.	4F/	.	4a\)	.	.	.	2.cc\	-ci-	.	.
!	!	!LO:TX:t=P:problem:kreska pseudotaktowa	!	!	!	!	!	!	!	!	!
4E/	.	4E/	.	4g\	.	.	.	.	.	.	.
!	!	!LO:LB:g=original	!	!	!	!	!	!	!	!LO:LB:g=original	!
1D/	.	1D/	.	4f\	.	1d\	et	.	.	1dd\	pal-
.	.	.	.	4e\	.	.	.	4cc\	-pi-	.	.
!	!	!	!	!LO:TX:t=P:problem:kreska pseudotaktowa	!	!	!	!	!	!	!
.	.	.	.	2d\	.	.	.	2b\	-unt	.	.
=112-	=112-	=112-	=112-	=112-	=112-	=112-	=112-	=112-	=112-	=112-	=112-
!LO:TX:t=P:problem:kreska pseudotaktowa	!	!LO:TX:t=P:problem:kreska pseudotaktowa	!	!	!	!	!	!	!	!LO:TX:t=P:problem:kreska pseudotaktowa	!
1C/,	-mam	1C/,	-mam	2g,\	-mam,	2G/	ac-	(2cc\	pal-	1ee\,	-ma(m)
.	.	.	.	2g\	et	2.c/	-ci-	2g\)	.	.	.
!	!	!	!	!	!	!	!	!LO:TX:t=P:problem:kreska pseudotaktowa	!	!	!
*	*ij	*	*ij	*	*	*	*	*	*	*	*
1G/	et	1G/	et	2e\	ac-	.	.	1g\	-ma(m)	2r	.
.	.	.	.	.	.	4c/	-pi-	.	.	.	.
!	!	!	!	!	!	!LO:TX:t=P:problem:kreska pseudotaktowa	!	!	!	!	!
.	.	.	.	2.g\	-ci-	2B/	-unt	.	.	1dd\	et
!	!	!	!	!	!	!LO:LB:g=original	!	!	!	!	!
=113-	=113-	=113-	=113-	=113-	=113-	=113-	=113-	=113-	=113-	=113-	=113-
1D/	ac-	1D/	ac-	.	.	(<2A/	pal-	2r	.	.	.
.	.	.	.	4g\	-pi-	.	.	.	.	.	.
!	!	!	!	!LO:TX:t=P:problem:kreska pseudotaktowa	!	!	!	!	!	!LO:TX:t=P:problem:kreska pseudotaktowa	!
.	.	.	.	2f,\	-unt	2d\)	.	2d/	et	2g/	ac-
!	!	!	!	!	!	!LO:TX:t=P:problem:kreska pseudotaktowa	!	!	!	!	!
2.C/	-ci-	2.C/	-ci-	1e\	pal-	1G/	-mam	2e\	ac-	2.cc\	-ci-
.	.	.	.	.	.	.	.	2.g\	-ci-	.	.
4C/	-pi-	4C/	-pi-	.	.	.	.	.	.	4cc\	-pi-
=114-	=114-	=114-	=114-	=114-	=114-	=114-	=114-	=114-	=114-	=114-	=114-
!LO:TX:t=P:problem:kreska pseudotaktowa	!	!LO:TX:t=P:problem:kreska pseudotaktowa	!	!LO:TX:t=P:problem:kreska pseudotaktowa	!	!	!	!	!	!	!
1D/	-unt	1D/	-unt	1d\,	-ma(m)	2r	.	.	.	2b,/	-unt
.	.	.	.	.	.	.	.	4g\	-pi-	.	.
!	!	!	!	!	!	!LO:TX:t=P:problem:kreska pseudotaktowa	!	!LO:TX:t=P:problem:kreska pseudotaktowa	!	!LO:TX:t=P:problem:kreska pseudotaktowa:między nutą a kropką:łuk	!
.	.	.	.	.	.	2d\	et	2f\	-unt	2.a/	pal-
*	*	*	*	*	*ij	*	*	*	*	*	*
0D/	pal-	0D/	pal-	1d\	et	2A/	ac-	(4f/	pal-	.	.
.	.	.	.	.	.	.	.	4e/	.	4g/	.
.	.	.	.	.	.	2.d\	-ci-	4d/	.	4f/	.
.	.	.	.	.	.	.	.	4e/)	.	4g/	.
=115-	=115-	=115-	=115-	=115-	=115-	=115-	=115-	=115-	=115-	=115-	=115-
.	.	.	.	2A/	ac-	.	.	4f/	.	2a/	.
.	.	.	.	.	.	4c/	-pi-	4e/	.	.	.
!	!	!	!	!	!	!LO:TX:t=P:problem:kreska pseudotaktowa	!	!	!	!	!
.	.	.	.	2.d\	-ci-	2B/	-unt	4d/	.	4b/	.
!	!	!	!	!	!	!	!	!LO:TX:t=P:problem:kreska pseudotaktowa	!	!LO:TX:t=P:problem:kreska pseudotaktowa	!
.	.	.	.	.	.	.	.	4e/	.	4cc/	.
0D/	-mam	0D/	-mam	.	.	2A/	pal-	2f\	.	0dd\	.
*	*Xij	*	*Xij	*	*	*	*	*	*	*	*
.	.	.	.	4c/	-pi-	.	.	.	.	.	.
.	.	.	.	2B,/	-unt	4B/	.	2.g\	.	.	.
.	.	.	.	.	.	4c/	.	.	.	.	.
=116-	=116-	=116-	=116-	=116-	=116-	=116-	=116-	=116-	=116-	=116-	=116-
!LO:TX:t=P:problem:kreska pseudotaktowa	!	!LO:TX:t=P:problem:kreska pseudotaktowa	!	!	!	!	!	!	!	!	!
.	.	.	.	1A/	pal-	1d\	.	.	.	.	.
.	.	.	.	.	.	.	.	8f\L	.	.	.
.	.	.	.	.	.	.	.	8e\J	.	.	.
!	!	!	!	!	!	!	!	!LO:TX:a:t=P:problem:# above	!	!	!
.	.	.	.	.	.	.	.	2f#X\	.	.	.
!	!	!	!	!	!	!	!	!LO:TX:t=P:problem:kreska pseudotaktowa	!	!LO:TX:t=P:problem:kreska pseudotaktowa	!
2r	.	2r	.	0G/	-ma(m)	2d,\	-ma(m)	1g\,	-mam	1b\,	-mam
*	*	*	*	*	*Xij	*	*	*	*	*	*
!	!	!	!	!	!	!LO:TX:t=P:problem:kreska pseudotaktowa	!	!	!	!	!
1G/	et	1G/	et	.	.	2d\	et	.	.	.	.
=117-	=117-	=117-	=117-	=117-	=117-	=117-	=117-	=117-	=117-	=117-	=117-
!	!	!	!	!LO:TX:t=P:problem:kreska pseudotaktowa	!	!	!	!	!	!	!
.	.	.	.	.	.	2B/	ac-	1g\	et	2r	.
2C/	ac-	2C/	ac-	.	.	2.c/	-ci-	.	.	1gg\	et
2.G/	-ci-	2.G/	-ci-	2r	.	.	.	2e\	ac-	.	.
.	.	.	.	.	.	4c/	-pi-	.	.	.	.
!	!	!	!	!	!	!LO:TX:t=P:problem:kreska pseudotaktowa	!	!	!	!LO:TX:t=P:problem:kreska pseudotaktowa	!
.	.	.	.	2g\	et	2B/	-unt	2.g\	-ci-	2dd\	ac-
4G/	-pi-	4G/	-pi-	.	.	.	.	.	.	.	.
=118-	=118-	=118-	=118-	=118-	=118-	=118-	=118-	=118-	=118-	=118-	=118-
!LO:TX:t=P:problem:kreska pseudotaktowa	!	!LO:TX:t=P:problem:kreska pseudotaktowa	!	!	!	!	!	!	!	!	!
1C/,	-unt	1C/	-unt	2e\	ac-	(4c\	pal-	.	.	2.ee\	-ci-
.	.	.	.	.	.	4d\	.	4f\	-pi-	.	.
!	!	!	!	!	!	!	!	!LO:TX:t=P:problem:kreska pseudotaktowa	!	!	!
.	.	.	.	2.g\	-ci-	4e\	.	2e,/	-unt	.	.
!	!	!	!	!	!	!	!	!	!	!LO:TX:t=P:problem:kreska pseudotaktowa	!
!	!	!	!	!	!	!	!	!	!	!LO:SIC:v:t=custos “cc”	!
.	.	.	.	.	.	4f\)	.	.	.	4dd\	.
!	!	!	!	!	!	!	!	!	!	!LO:LB:g=original	!
4C/	pal-	4C/	pal-	.	.	2g\	.	(4e\	pal-	2cc\	.
4D/	.	4D/	.	4f\	-pi-	.	.	4f\	.	.	.
!	!	!	!	!LO:TX:t=P:problem:kreska pseudotaktowa	!	!LO:TX:t=P:problem:kreska pseudotaktowa	!	!	!	!LO:TX:t=P:problem:kreska pseudotaktowa	!
4E/	.	4E/	.	2e\	-unt	2g\	-ma(m)	4g\	.	2cc\	-pi-
4F/	.	4F/	.	.	.	.	.	4a\)	.	.	.
=119-	=119-	=119-	=119-	=119-	=119-	=119-	=119-	=119-	=119-	=119-	=119-
4G/	.	4G/	.	(2d\	pal-	2r	.	(4bn\	.	2g,/	-unt
4F/	.	4F/	.	.	.	.	.	4a\	.	.	.
4E/	.	4E/	.	4e\	.	(2.e\	pal-	4g\	.	2.gg\	pal-
!	!	!	!	!	!	!	!	!LO:TX:t=P:problem:kreska pseudotaktowa	!	!	!
!	!	!	!	!	!	!	!	!LO:SIC:v:t=custos “e”	!	!	!
4D/	.	4D/	.	4f\)	.	.	.	4f\)	.	.	.
!	!	!	!	!	!	!	!	!LO:LB:g=original	!	!	!
0.C/	.	0.C/	.	2.g\	.	.	.	4e/	.	.	.
.	.	.	.	.	.	4d\	.	4f/	.	4ff\	.
.	.	.	.	.	.	4c\	.	2.g/	.	4ee\	.
!	!	!	!	!LO:TX:t=P:problem:kreska pseudotaktowa	!	!LO:TX:t=P:problem:kreska pseudotaktowa	!	!	!	!LO:TX:t=P:problem:kreska pseudotaktowa	!
.	.	.	.	4f\	.	4d\)	.	.	.	4dd\	.
=120-	=120-	=120-	=120-	=120-	=120-	=120-	=120-	=120-	=120-	=120-	=120-
.	.	.	.	4e\	.	4e\	.	.	.	0cc\	.
.	.	.	.	4d\	.	4f\	.	4f/	.	.	.
.	.	.	.	2c/	.	4g\	.	4e/	.	.	.
.	.	.	.	.	.	4f\	.	4f/	.	.	.
!	!	!	!	!	!	!	!	!LO:TX:t=P:problem:kreska pseudotaktowa	!	!	!
.	.	.	.	0.G/;	-mam	4e\	.	1g\	.	.	.
.	.	.	.	.	.	4d\	.	.	.	.	.
.	.	.	.	.	.	2e\	.	.	.	.	.
=121-	=121-	=121-	=121-	=121-	=121-	=121-	=121-	=121-	=121-	=121-	=121-
0G/;	-mam	0G/	-mam	.	.	0d\;	-mam.	0g\;	-mam.	0b\;	-mam.
=-	=-	=-	=-	=-	=-	=-	=-	=-	=-	=-	=-
*-	*-	*-	*-	*-	*-	*-	*-	*-	*-	*-	*-
!!!system-decoration: [(s1,s2,s3,s4,s5,s6)]
!!!RDF**kern: > = above
!!!RDF**kern: < = below
!!!EED: Leszek Kubiak
!!!EST: 2021-04-11
!!!ENC: Tomasz Grochalski
!!!END: 2021-03-25
!!!RDF**kern: | = vertical stroke
